(Project stack)
(Created by Estlcam version 11 build 11.233)
(Machining time about 00:01:00 hours)

(Required tools:)
(Endmil 3.175)
G21
G90
G94
M03 S12000
G00 Z5.0000


(No. 1: Hole 10)
G00 X54.0575 Y9.5464
G00 Z0.5000
G01 Z0.0000 F2400 S12000
G01 Z-1.0000
G02 X54.4869 Y9.3777 I-0.3279 J-1.4649 F6000
G01 X54.4773 Y9.3830
G02 X54.6452 Y9.2849 I-1.0592 J-2.0053
G01 X54.6204 Y9.3006
G02 X55.4589 Y8.5823 I-1.8015 J-2.9515
G01 X55.4363 Y8.6082
G02 X55.5638 Y8.4557 I-1.9348 J-1.7487
G01 X55.5570 Y8.4647
G01 X55.6419 Y8.3522
G01 X55.6301 Y8.3686
G01 X55.6189 Y8.3840
G01 X55.6930 Y8.2787
G01 X55.7060 Y8.2599
G01 X55.6959 Y8.2743
G01 X55.6879 Y8.2869
G01 X55.7012 Y8.2661
G01 X55.7706 Y8.1604
G01 X55.7615 Y8.1741
G02 X55.9081 Y7.9122 I-3.4944 J-2.1283
G01 X55.8996 Y7.9294
G01 X55.9378 Y7.8438
G01 X55.9888 Y7.7255
G01 X55.9817 Y7.7421
G02 X56.0375 Y7.5694 I-1.1167 J-0.4564
G02 X55.6091 Y7.7445 I0.8090 J2.5903
G01 X55.6252 Y7.7364
G01 X55.5118 Y7.7994
G01 X55.5007 Y7.8069
G01 X55.5349 Y7.7857
G01 X55.5140 Y7.7981
G01 X55.4436 Y7.8402
G01 X55.4586 Y7.8316
G02 X54.8214 Y8.3391 I1.8975 J3.0365
G01 X54.8310 Y8.3302
G01 X54.8144 Y8.3473
G01 X54.7458 Y8.4158
G01 X54.7530 Y8.4078
G03 X54.6322 Y8.5429 I-1.1876 J-0.9396
G01 X54.6566 Y8.5151
G02 X54.3213 Y8.9661 I2.4608 J2.1794
G01 X54.3283 Y8.9555
G01 X54.3371 Y8.9408
G02 X54.0851 Y9.4503 I2.0348 J1.3236
G01 X54.0929 Y9.4290
G02 X54.0575 Y9.5464 I1.3664 J0.4755
G01 Z-2.0000 F2400
G02 X54.4869 Y9.3777 I-0.3279 J-1.4649 F6000
G01 X54.4773 Y9.3830
G02 X54.6452 Y9.2849 I-1.0592 J-2.0053
G01 X54.6204 Y9.3006
G02 X55.4589 Y8.5823 I-1.8015 J-2.9515
G01 X55.4363 Y8.6082
G02 X55.5638 Y8.4557 I-1.9348 J-1.7487
G01 X55.5570 Y8.4647
G01 X55.6419 Y8.3522
G01 X55.6301 Y8.3686
G01 X55.6189 Y8.3840
G01 X55.6930 Y8.2787
G01 X55.7060 Y8.2599
G01 X55.6959 Y8.2743
G01 X55.6879 Y8.2869
G01 X55.7012 Y8.2661
G01 X55.7706 Y8.1604
G01 X55.7615 Y8.1741
G02 X55.9081 Y7.9122 I-3.4944 J-2.1283
G01 X55.8996 Y7.9294
G01 X55.9378 Y7.8438
G01 X55.9888 Y7.7255
G01 X55.9817 Y7.7421
G02 X56.0375 Y7.5694 I-1.1167 J-0.4564
G02 X55.6091 Y7.7445 I0.8090 J2.5903
G01 X55.6252 Y7.7364
G01 X55.5118 Y7.7994
G01 X55.5007 Y7.8069
G01 X55.5349 Y7.7857
G01 X55.5140 Y7.7981
G01 X55.4436 Y7.8402
G01 X55.4586 Y7.8316
G02 X54.8214 Y8.3391 I1.8975 J3.0365
G01 X54.8310 Y8.3302
G01 X54.8144 Y8.3473
G01 X54.7458 Y8.4158
G01 X54.7530 Y8.4078
G03 X54.6322 Y8.5429 I-1.1876 J-0.9396
G01 X54.6566 Y8.5151
G02 X54.3213 Y8.9661 I2.4608 J2.1794
G01 X54.3283 Y8.9555
G01 X54.3371 Y8.9408
G02 X54.0851 Y9.4503 I2.0348 J1.3236
G01 X54.0929 Y9.4290
G02 X54.0575 Y9.5464 I1.3664 J0.4755
G01 Z-3.0000 F2400
G02 X54.4869 Y9.3777 I-0.3279 J-1.4649 F6000
G01 X54.4773 Y9.3830
G02 X54.6452 Y9.2849 I-1.0592 J-2.0053
G01 X54.6204 Y9.3006
G02 X55.4589 Y8.5823 I-1.8015 J-2.9515
G01 X55.4363 Y8.6082
G02 X55.5638 Y8.4557 I-1.9348 J-1.7487
G01 X55.5570 Y8.4647
G01 X55.6419 Y8.3522
G01 X55.6301 Y8.3686
G01 X55.6189 Y8.3840
G01 X55.6930 Y8.2787
G01 X55.7060 Y8.2599
G01 X55.6959 Y8.2743
G01 X55.6879 Y8.2869
G01 X55.7012 Y8.2661
G01 X55.7706 Y8.1604
G01 X55.7615 Y8.1741
G02 X55.9081 Y7.9122 I-3.4944 J-2.1283
G01 X55.8996 Y7.9294
G01 X55.9378 Y7.8438
G01 X55.9888 Y7.7255
G01 X55.9817 Y7.7421
G02 X56.0375 Y7.5694 I-1.1167 J-0.4564
G02 X55.6091 Y7.7445 I0.8090 J2.5903
G01 X55.6252 Y7.7364
G01 X55.5118 Y7.7994
G01 X55.5007 Y7.8069
G01 X55.5349 Y7.7857
G01 X55.5140 Y7.7981
G01 X55.4436 Y7.8402
G01 X55.4586 Y7.8316
G02 X54.8214 Y8.3391 I1.8975 J3.0365
G01 X54.8310 Y8.3302
G01 X54.8144 Y8.3473
G01 X54.7458 Y8.4158
G01 X54.7530 Y8.4078
G03 X54.6322 Y8.5429 I-1.1876 J-0.9396
G01 X54.6566 Y8.5151
G02 X54.3213 Y8.9661 I2.4608 J2.1794
G01 X54.3283 Y8.9555
G01 X54.3371 Y8.9408
G02 X54.0851 Y9.4503 I2.0348 J1.3236
G01 X54.0929 Y9.4290
G02 X54.0575 Y9.5464 I1.3664 J0.4755
G01 Z-3.4000 F2400
G02 X54.4869 Y9.3777 I-0.3279 J-1.4649 F6000
G01 X54.4773 Y9.3830
G02 X54.6452 Y9.2849 I-1.0592 J-2.0053
G01 X54.6204 Y9.3006
G02 X55.4589 Y8.5823 I-1.8015 J-2.9515
G01 X55.4363 Y8.6082
G02 X55.5638 Y8.4557 I-1.9348 J-1.7487
G01 X55.5570 Y8.4647
G01 X55.6419 Y8.3522
G01 X55.6301 Y8.3686
G01 X55.6189 Y8.3840
G01 X55.6930 Y8.2787
G01 X55.7060 Y8.2599
G01 X55.6959 Y8.2743
G01 X55.6879 Y8.2869
G01 X55.7012 Y8.2661
G01 X55.7706 Y8.1604
G01 X55.7615 Y8.1741
G02 X55.9081 Y7.9122 I-3.4944 J-2.1283
G01 X55.8996 Y7.9294
G01 X55.9378 Y7.8438
G01 X55.9888 Y7.7255
G01 X55.9817 Y7.7421
G02 X56.0375 Y7.5694 I-1.1167 J-0.4564
G02 X55.6091 Y7.7445 I0.8090 J2.5903
G01 X55.6252 Y7.7364
G01 X55.5118 Y7.7994
G01 X55.5007 Y7.8069
G01 X55.5349 Y7.7857
G01 X55.5140 Y7.7981
G01 X55.4436 Y7.8402
G01 X55.4586 Y7.8316
G02 X54.8214 Y8.3391 I1.8975 J3.0365
G01 X54.8310 Y8.3302
G01 X54.8144 Y8.3473
G01 X54.7458 Y8.4158
G01 X54.7530 Y8.4078
G03 X54.6322 Y8.5429 I-1.1876 J-0.9396
G01 X54.6566 Y8.5151
G02 X54.3213 Y8.9661 I2.4608 J2.1794
G01 X54.3283 Y8.9555
G01 X54.3371 Y8.9408
G02 X54.0851 Y9.4503 I2.0348 J1.3236
G01 X54.0929 Y9.4290
G02 X54.0575 Y9.5464 I1.3664 J0.4755
G00 Z5.0000


(No. 2: Hole 11)
G00 X71.8333 Y7.5709 Z5.0000
G00 Z0.5000
G01 Z0.0000 F2400
G01 Z-1.0000
G03 X71.8482 Y7.6190 I-0.4526 J0.1661 F6000
G01 X71.8432 Y7.6036
G02 X72.0192 Y8.0200 I2.0338 J-0.6143
G01 X72.0099 Y8.0021
G01 X72.0485 Y8.0702
G01 X72.0336 Y8.0422
G01 X72.0775 Y8.1177
G01 X72.1108 Y8.1744
G01 X72.1016 Y8.1605
G02 X72.4010 Y8.5692 I3.1801 J-2.0160
G01 X72.3921 Y8.5602
G02 X72.6849 Y8.8684 I3.4617 J-2.9963
G01 X72.6755 Y8.8600
G02 X73.2996 Y9.3295 I2.4038 J-2.5452
G01 X73.2878 Y9.3227
G02 X73.5265 Y9.4472 I1.2217 J-2.0519
G01 X73.5030 Y9.4354
G02 X73.7911 Y9.5475 I0.8540 J-1.7675
G01 X73.7749 Y9.5431
G01 X73.8184 Y9.5547
G01 X73.8117 Y9.5298
G01 X73.7772 Y9.4228
G01 X73.7814 Y9.4365
G01 X73.7906 Y9.4613
G02 X73.5431 Y8.9530 I-2.3023 J0.8066
G01 X73.5526 Y8.9687
G01 X73.5582 Y8.9771
G02 X73.2422 Y8.5448 I-3.0517 J1.8990
G01 X73.2511 Y8.5542
G02 X72.7326 Y8.0546 I-3.1056 J2.7041
G01 X72.7530 Y8.0702
G02 X72.5232 Y7.9016 I-2.8156 J3.5962
G01 X72.5346 Y7.9096
G02 X72.4173 Y7.8344 I-5.5862 J8.5759
G01 X72.4259 Y7.8402
G02 X71.8645 Y7.5785 I-1.3060 J2.0684
G01 X71.8837 Y7.5845
G01 X71.8333 Y7.5709
G01 Z-2.0000 F2400
G03 X71.8482 Y7.6190 I-0.4526 J0.1661 F6000
G01 X71.8432 Y7.6036
G02 X72.0192 Y8.0200 I2.0338 J-0.6143
G01 X72.0099 Y8.0021
G01 X72.0485 Y8.0702
G01 X72.0336 Y8.0422
G01 X72.0775 Y8.1177
G01 X72.1108 Y8.1744
G01 X72.1016 Y8.1605
G02 X72.4010 Y8.5692 I3.1801 J-2.0160
G01 X72.3921 Y8.5602
G02 X72.6849 Y8.8684 I3.4617 J-2.9963
G01 X72.6755 Y8.8600
G02 X73.2996 Y9.3295 I2.4038 J-2.5452
G01 X73.2878 Y9.3227
G02 X73.5265 Y9.4472 I1.2217 J-2.0519
G01 X73.5030 Y9.4354
G02 X73.7911 Y9.5475 I0.8540 J-1.7675
G01 X73.7749 Y9.5431
G01 X73.8184 Y9.5547
G01 X73.8117 Y9.5298
G01 X73.7772 Y9.4228
G01 X73.7814 Y9.4365
G01 X73.7906 Y9.4613
G02 X73.5431 Y8.9530 I-2.3023 J0.8066
G01 X73.5526 Y8.9687
G01 X73.5582 Y8.9771
G02 X73.2422 Y8.5448 I-3.0517 J1.8990
G01 X73.2511 Y8.5542
G02 X72.7326 Y8.0546 I-3.1056 J2.7041
G01 X72.7530 Y8.0702
G02 X72.5232 Y7.9016 I-2.8156 J3.5962
G01 X72.5346 Y7.9096
G02 X72.4173 Y7.8344 I-5.5862 J8.5759
G01 X72.4259 Y7.8402
G02 X71.8645 Y7.5785 I-1.3060 J2.0684
G01 X71.8837 Y7.5845
G01 X71.8333 Y7.5709
G01 Z-3.0000 F2400
G03 X71.8482 Y7.6190 I-0.4526 J0.1661 F6000
G01 X71.8432 Y7.6036
G02 X72.0192 Y8.0200 I2.0338 J-0.6143
G01 X72.0099 Y8.0021
G01 X72.0485 Y8.0702
G01 X72.0336 Y8.0422
G01 X72.0775 Y8.1177
G01 X72.1108 Y8.1744
G01 X72.1016 Y8.1605
G02 X72.4010 Y8.5692 I3.1801 J-2.0160
G01 X72.3921 Y8.5602
G02 X72.6849 Y8.8684 I3.4617 J-2.9963
G01 X72.6755 Y8.8600
G02 X73.2996 Y9.3295 I2.4038 J-2.5452
G01 X73.2878 Y9.3227
G02 X73.5265 Y9.4472 I1.2217 J-2.0519
G01 X73.5030 Y9.4354
G02 X73.7911 Y9.5475 I0.8540 J-1.7675
G01 X73.7749 Y9.5431
G01 X73.8184 Y9.5547
G01 X73.8117 Y9.5298
G01 X73.7772 Y9.4228
G01 X73.7814 Y9.4365
G01 X73.7906 Y9.4613
G02 X73.5431 Y8.9530 I-2.3023 J0.8066
G01 X73.5526 Y8.9687
G01 X73.5582 Y8.9771
G02 X73.2422 Y8.5448 I-3.0517 J1.8990
G01 X73.2511 Y8.5542
G02 X72.7326 Y8.0546 I-3.1056 J2.7041
G01 X72.7530 Y8.0702
G02 X72.5232 Y7.9016 I-2.8156 J3.5962
G01 X72.5346 Y7.9096
G02 X72.4173 Y7.8344 I-5.5862 J8.5759
G01 X72.4259 Y7.8402
G02 X71.8645 Y7.5785 I-1.3060 J2.0684
G01 X71.8837 Y7.5845
G01 X71.8333 Y7.5709
G01 Z-3.4000 F2400
G03 X71.8482 Y7.6190 I-0.4526 J0.1661 F6000
G01 X71.8432 Y7.6036
G02 X72.0192 Y8.0200 I2.0338 J-0.6143
G01 X72.0099 Y8.0021
G01 X72.0485 Y8.0702
G01 X72.0336 Y8.0422
G01 X72.0775 Y8.1177
G01 X72.1108 Y8.1744
G01 X72.1016 Y8.1605
G02 X72.4010 Y8.5692 I3.1801 J-2.0160
G01 X72.3921 Y8.5602
G02 X72.6849 Y8.8684 I3.4617 J-2.9963
G01 X72.6755 Y8.8600
G02 X73.2996 Y9.3295 I2.4038 J-2.5452
G01 X73.2878 Y9.3227
G02 X73.5265 Y9.4472 I1.2217 J-2.0519
G01 X73.5030 Y9.4354
G02 X73.7911 Y9.5475 I0.8540 J-1.7675
G01 X73.7749 Y9.5431
G01 X73.8184 Y9.5547
G01 X73.8117 Y9.5298
G01 X73.7772 Y9.4228
G01 X73.7814 Y9.4365
G01 X73.7906 Y9.4613
G02 X73.5431 Y8.9530 I-2.3023 J0.8066
G01 X73.5526 Y8.9687
G01 X73.5582 Y8.9771
G02 X73.2422 Y8.5448 I-3.0517 J1.8990
G01 X73.2511 Y8.5542
G02 X72.7326 Y8.0546 I-3.1056 J2.7041
G01 X72.7530 Y8.0702
G02 X72.5232 Y7.9016 I-2.8156 J3.5962
G01 X72.5346 Y7.9096
G02 X72.4173 Y7.8344 I-5.5862 J8.5759
G01 X72.4259 Y7.8402
G02 X71.8645 Y7.5785 I-1.3060 J2.0684
G01 X71.8837 Y7.5845
G01 X71.8333 Y7.5709
G00 Z5.0000


(No. 3: Hole 7)
G00 X71.8333 Y42.5709 Z5.0000
G00 Z0.5000
G01 Z0.0000 F2400
G01 Z-1.0000
G03 X71.8482 Y42.6190 I-0.4526 J0.1661 F6000
G01 X71.8432 Y42.6036
G02 X72.0192 Y43.0200 I2.0338 J-0.6143
G01 X72.0099 Y43.0021
G01 X72.0485 Y43.0702
G01 X72.0336 Y43.0422
G01 X72.0775 Y43.1177
G01 X72.1108 Y43.1744
G01 X72.1016 Y43.1605
G02 X72.4010 Y43.5692 I3.1801 J-2.0160
G01 X72.3921 Y43.5602
G02 X72.6849 Y43.8684 I3.4617 J-2.9963
G01 X72.6755 Y43.8600
G02 X73.2996 Y44.3295 I2.4038 J-2.5452
G01 X73.2878 Y44.3227
G02 X73.5265 Y44.4472 I1.2217 J-2.0519
G01 X73.5030 Y44.4354
G02 X73.7911 Y44.5475 I0.8540 J-1.7675
G01 X73.7749 Y44.5431
G01 X73.8184 Y44.5547
G01 X73.8117 Y44.5298
G01 X73.7772 Y44.4228
G01 X73.7814 Y44.4365
G01 X73.7906 Y44.4613
G02 X73.5431 Y43.9530 I-2.3023 J0.8066
G01 X73.5526 Y43.9687
G01 X73.5582 Y43.9771
G02 X73.2422 Y43.5448 I-3.0517 J1.8990
G01 X73.2511 Y43.5542
G02 X72.7326 Y43.0546 I-3.1056 J2.7041
G01 X72.7530 Y43.0702
G02 X72.5232 Y42.9016 I-2.8156 J3.5962
G01 X72.5346 Y42.9096
G02 X72.4173 Y42.8344 I-5.5862 J8.5759
G01 X72.4259 Y42.8402
G02 X71.8645 Y42.5785 I-1.3060 J2.0684
G01 X71.8837 Y42.5845
G01 X71.8333 Y42.5709
G01 Z-2.0000 F2400
G03 X71.8482 Y42.6190 I-0.4526 J0.1661 F6000
G01 X71.8432 Y42.6036
G02 X72.0192 Y43.0200 I2.0338 J-0.6143
G01 X72.0099 Y43.0021
G01 X72.0485 Y43.0702
G01 X72.0336 Y43.0422
G01 X72.0775 Y43.1177
G01 X72.1108 Y43.1744
G01 X72.1016 Y43.1605
G02 X72.4010 Y43.5692 I3.1801 J-2.0160
G01 X72.3921 Y43.5602
G02 X72.6849 Y43.8684 I3.4617 J-2.9963
G01 X72.6755 Y43.8600
G02 X73.2996 Y44.3295 I2.4038 J-2.5452
G01 X73.2878 Y44.3227
G02 X73.5265 Y44.4472 I1.2217 J-2.0519
G01 X73.5030 Y44.4354
G02 X73.7911 Y44.5475 I0.8540 J-1.7675
G01 X73.7749 Y44.5431
G01 X73.8184 Y44.5547
G01 X73.8117 Y44.5298
G01 X73.7772 Y44.4228
G01 X73.7814 Y44.4365
G01 X73.7906 Y44.4613
G02 X73.5431 Y43.9530 I-2.3023 J0.8066
G01 X73.5526 Y43.9687
G01 X73.5582 Y43.9771
G02 X73.2422 Y43.5448 I-3.0517 J1.8990
G01 X73.2511 Y43.5542
G02 X72.7326 Y43.0546 I-3.1056 J2.7041
G01 X72.7530 Y43.0702
G02 X72.5232 Y42.9016 I-2.8156 J3.5962
G01 X72.5346 Y42.9096
G02 X72.4173 Y42.8344 I-5.5862 J8.5759
G01 X72.4259 Y42.8402
G02 X71.8645 Y42.5785 I-1.3060 J2.0684
G01 X71.8837 Y42.5845
G01 X71.8333 Y42.5709
G01 Z-3.0000 F2400
G03 X71.8482 Y42.6190 I-0.4526 J0.1661 F6000
G01 X71.8432 Y42.6036
G02 X72.0192 Y43.0200 I2.0338 J-0.6143
G01 X72.0099 Y43.0021
G01 X72.0485 Y43.0702
G01 X72.0336 Y43.0422
G01 X72.0775 Y43.1177
G01 X72.1108 Y43.1744
G01 X72.1016 Y43.1605
G02 X72.4010 Y43.5692 I3.1801 J-2.0160
G01 X72.3921 Y43.5602
G02 X72.6849 Y43.8684 I3.4617 J-2.9963
G01 X72.6755 Y43.8600
G02 X73.2996 Y44.3295 I2.4038 J-2.5452
G01 X73.2878 Y44.3227
G02 X73.5265 Y44.4472 I1.2217 J-2.0519
G01 X73.5030 Y44.4354
G02 X73.7911 Y44.5475 I0.8540 J-1.7675
G01 X73.7749 Y44.5431
G01 X73.8184 Y44.5547
G01 X73.8117 Y44.5298
G01 X73.7772 Y44.4228
G01 X73.7814 Y44.4365
G01 X73.7906 Y44.4613
G02 X73.5431 Y43.9530 I-2.3023 J0.8066
G01 X73.5526 Y43.9687
G01 X73.5582 Y43.9771
G02 X73.2422 Y43.5448 I-3.0517 J1.8990
G01 X73.2511 Y43.5542
G02 X72.7326 Y43.0546 I-3.1056 J2.7041
G01 X72.7530 Y43.0702
G02 X72.5232 Y42.9016 I-2.8156 J3.5962
G01 X72.5346 Y42.9096
G02 X72.4173 Y42.8344 I-5.5862 J8.5759
G01 X72.4259 Y42.8402
G02 X71.8645 Y42.5785 I-1.3060 J2.0684
G01 X71.8837 Y42.5845
G01 X71.8333 Y42.5709
G01 Z-3.4000 F2400
G03 X71.8482 Y42.6190 I-0.4526 J0.1661 F6000
G01 X71.8432 Y42.6036
G02 X72.0192 Y43.0200 I2.0338 J-0.6143
G01 X72.0099 Y43.0021
G01 X72.0485 Y43.0702
G01 X72.0336 Y43.0422
G01 X72.0775 Y43.1177
G01 X72.1108 Y43.1744
G01 X72.1016 Y43.1605
G02 X72.4010 Y43.5692 I3.1801 J-2.0160
G01 X72.3921 Y43.5602
G02 X72.6849 Y43.8684 I3.4617 J-2.9963
G01 X72.6755 Y43.8600
G02 X73.2996 Y44.3295 I2.4038 J-2.5452
G01 X73.2878 Y44.3227
G02 X73.5265 Y44.4472 I1.2217 J-2.0519
G01 X73.5030 Y44.4354
G02 X73.7911 Y44.5475 I0.8540 J-1.7675
G01 X73.7749 Y44.5431
G01 X73.8184 Y44.5547
G01 X73.8117 Y44.5298
G01 X73.7772 Y44.4228
G01 X73.7814 Y44.4365
G01 X73.7906 Y44.4613
G02 X73.5431 Y43.9530 I-2.3023 J0.8066
G01 X73.5526 Y43.9687
G01 X73.5582 Y43.9771
G02 X73.2422 Y43.5448 I-3.0517 J1.8990
G01 X73.2511 Y43.5542
G02 X72.7326 Y43.0546 I-3.1056 J2.7041
G01 X72.7530 Y43.0702
G02 X72.5232 Y42.9016 I-2.8156 J3.5962
G01 X72.5346 Y42.9096
G02 X72.4173 Y42.8344 I-5.5862 J8.5759
G01 X72.4259 Y42.8402
G02 X71.8645 Y42.5785 I-1.3060 J2.0684
G01 X71.8837 Y42.5845
G01 X71.8333 Y42.5709
G00 Z5.0000


(No. 4: Hole 6)
G00 X54.5983 Y43.5828 Z5.0000
G00 Z0.5000
G01 Z0.0000 F2400
G01 Z-1.0000
G02 X54.3213 Y43.9661 I2.8272 J2.3352 F6000
G01 X54.3283 Y43.9555
G01 X54.3371 Y43.9408
G02 X54.0851 Y44.4503 I2.0348 J1.3236
G01 X54.0929 Y44.4290
G02 X54.0575 Y44.5464 I1.3664 J0.4755
G02 X54.4869 Y44.3777 I-0.3279 J-1.4649
G01 X54.4773 Y44.3830
G02 X54.6452 Y44.2849 I-1.0592 J-2.0053
G01 X54.6204 Y44.3006
G02 X55.4589 Y43.5823 I-1.8015 J-2.9515
G01 X55.4363 Y43.6082
G02 X55.5638 Y43.4557 I-1.9348 J-1.7487
G01 X55.5570 Y43.4647
G01 X55.6419 Y43.3522
G01 X55.6301 Y43.3686
G01 X55.6189 Y43.3840
G01 X55.6930 Y43.2787
G01 X55.7060 Y43.2599
G01 X55.6959 Y43.2743
G01 X55.6879 Y43.2869
G01 X55.7012 Y43.2661
G01 X55.7706 Y43.1604
G01 X55.7615 Y43.1741
G02 X55.9081 Y42.9122 I-3.4944 J-2.1283
G01 X55.8996 Y42.9294
G01 X55.9378 Y42.8438
G01 X55.9888 Y42.7255
G01 X55.9817 Y42.7421
G02 X56.0375 Y42.5694 I-1.1167 J-0.4564
G02 X55.6091 Y42.7445 I0.8090 J2.5903
G01 X55.6252 Y42.7364
G01 X55.5118 Y42.7994
G01 X55.5007 Y42.8069
G01 X55.5349 Y42.7857
G01 X55.5140 Y42.7981
G01 X55.4436 Y42.8402
G01 X55.4586 Y42.8316
G02 X54.8214 Y43.3391 I1.8975 J3.0365
G01 X54.8310 Y43.3302
G01 X54.8144 Y43.3473
G01 X54.7458 Y43.4158
G01 X54.7530 Y43.4078
G03 X54.6322 Y43.5429 I-1.1876 J-0.9396
G01 X54.6566 Y43.5151
G01 X54.5983 Y43.5828
G01 Z-2.0000 F2400
G02 X54.3213 Y43.9661 I2.8272 J2.3352 F6000
G01 X54.3283 Y43.9555
G01 X54.3371 Y43.9408
G02 X54.0851 Y44.4503 I2.0348 J1.3236
G01 X54.0929 Y44.4290
G02 X54.0575 Y44.5464 I1.3664 J0.4755
G02 X54.4869 Y44.3777 I-0.3279 J-1.4649
G01 X54.4773 Y44.3830
G02 X54.6452 Y44.2849 I-1.0592 J-2.0053
G01 X54.6204 Y44.3006
G02 X55.4589 Y43.5823 I-1.8015 J-2.9515
G01 X55.4363 Y43.6082
G02 X55.5638 Y43.4557 I-1.9348 J-1.7487
G01 X55.5570 Y43.4647
G01 X55.6419 Y43.3522
G01 X55.6301 Y43.3686
G01 X55.6189 Y43.3840
G01 X55.6930 Y43.2787
G01 X55.7060 Y43.2599
G01 X55.6959 Y43.2743
G01 X55.6879 Y43.2869
G01 X55.7012 Y43.2661
G01 X55.7706 Y43.1604
G01 X55.7615 Y43.1741
G02 X55.9081 Y42.9122 I-3.4944 J-2.1283
G01 X55.8996 Y42.9294
G01 X55.9378 Y42.8438
G01 X55.9888 Y42.7255
G01 X55.9817 Y42.7421
G02 X56.0375 Y42.5694 I-1.1167 J-0.4564
G02 X55.6091 Y42.7445 I0.8090 J2.5903
G01 X55.6252 Y42.7364
G01 X55.5118 Y42.7994
G01 X55.5007 Y42.8069
G01 X55.5349 Y42.7857
G01 X55.5140 Y42.7981
G01 X55.4436 Y42.8402
G01 X55.4586 Y42.8316
G02 X54.8214 Y43.3391 I1.8975 J3.0365
G01 X54.8310 Y43.3302
G01 X54.8144 Y43.3473
G01 X54.7458 Y43.4158
G01 X54.7530 Y43.4078
G03 X54.6322 Y43.5429 I-1.1876 J-0.9396
G01 X54.6566 Y43.5151
G01 X54.5983 Y43.5828
G01 Z-3.0000 F2400
G02 X54.3213 Y43.9661 I2.8272 J2.3352 F6000
G01 X54.3283 Y43.9555
G01 X54.3371 Y43.9408
G02 X54.0851 Y44.4503 I2.0348 J1.3236
G01 X54.0929 Y44.4290
G02 X54.0575 Y44.5464 I1.3664 J0.4755
G02 X54.4869 Y44.3777 I-0.3279 J-1.4649
G01 X54.4773 Y44.3830
G02 X54.6452 Y44.2849 I-1.0592 J-2.0053
G01 X54.6204 Y44.3006
G02 X55.4589 Y43.5823 I-1.8015 J-2.9515
G01 X55.4363 Y43.6082
G02 X55.5638 Y43.4557 I-1.9348 J-1.7487
G01 X55.5570 Y43.4647
G01 X55.6419 Y43.3522
G01 X55.6301 Y43.3686
G01 X55.6189 Y43.3840
G01 X55.6930 Y43.2787
G01 X55.7060 Y43.2599
G01 X55.6959 Y43.2743
G01 X55.6879 Y43.2869
G01 X55.7012 Y43.2661
G01 X55.7706 Y43.1604
G01 X55.7615 Y43.1741
G02 X55.9081 Y42.9122 I-3.4944 J-2.1283
G01 X55.8996 Y42.9294
G01 X55.9378 Y42.8438
G01 X55.9888 Y42.7255
G01 X55.9817 Y42.7421
G02 X56.0375 Y42.5694 I-1.1167 J-0.4564
G02 X55.6091 Y42.7445 I0.8090 J2.5903
G01 X55.6252 Y42.7364
G01 X55.5118 Y42.7994
G01 X55.5007 Y42.8069
G01 X55.5349 Y42.7857
G01 X55.5140 Y42.7981
G01 X55.4436 Y42.8402
G01 X55.4586 Y42.8316
G02 X54.8214 Y43.3391 I1.8975 J3.0365
G01 X54.8310 Y43.3302
G01 X54.8144 Y43.3473
G01 X54.7458 Y43.4158
G01 X54.7530 Y43.4078
G03 X54.6322 Y43.5429 I-1.1876 J-0.9396
G01 X54.6566 Y43.5151
G01 X54.5983 Y43.5828
G01 Z-3.4000 F2400
G02 X54.3213 Y43.9661 I2.8272 J2.3352 F6000
G01 X54.3283 Y43.9555
G01 X54.3371 Y43.9408
G02 X54.0851 Y44.4503 I2.0348 J1.3236
G01 X54.0929 Y44.4290
G02 X54.0575 Y44.5464 I1.3664 J0.4755
G02 X54.4869 Y44.3777 I-0.3279 J-1.4649
G01 X54.4773 Y44.3830
G02 X54.6452 Y44.2849 I-1.0592 J-2.0053
G01 X54.6204 Y44.3006
G02 X55.4589 Y43.5823 I-1.8015 J-2.9515
G01 X55.4363 Y43.6082
G02 X55.5638 Y43.4557 I-1.9348 J-1.7487
G01 X55.5570 Y43.4647
G01 X55.6419 Y43.3522
G01 X55.6301 Y43.3686
G01 X55.6189 Y43.3840
G01 X55.6930 Y43.2787
G01 X55.7060 Y43.2599
G01 X55.6959 Y43.2743
G01 X55.6879 Y43.2869
G01 X55.7012 Y43.2661
G01 X55.7706 Y43.1604
G01 X55.7615 Y43.1741
G02 X55.9081 Y42.9122 I-3.4944 J-2.1283
G01 X55.8996 Y42.9294
G01 X55.9378 Y42.8438
G01 X55.9888 Y42.7255
G01 X55.9817 Y42.7421
G02 X56.0375 Y42.5694 I-1.1167 J-0.4564
G02 X55.6091 Y42.7445 I0.8090 J2.5903
G01 X55.6252 Y42.7364
G01 X55.5118 Y42.7994
G01 X55.5007 Y42.8069
G01 X55.5349 Y42.7857
G01 X55.5140 Y42.7981
G01 X55.4436 Y42.8402
G01 X55.4586 Y42.8316
G02 X54.8214 Y43.3391 I1.8975 J3.0365
G01 X54.8310 Y43.3302
G01 X54.8144 Y43.3473
G01 X54.7458 Y43.4158
G01 X54.7530 Y43.4078
G03 X54.6322 Y43.5429 I-1.1876 J-0.9396
G01 X54.6566 Y43.5151
G01 X54.5983 Y43.5828
G00 Z5.0000


(No. 5: Hole 2)
G00 X55.3035 Y77.9343 Z5.0000
G00 Z0.5000
G01 Z0.0000 F2400
G01 Z-1.0000
G02 X54.4380 Y78.7892 I2.1070 J2.9985 F6000
G01 X54.4512 Y78.7718
G02 X54.3443 Y78.9297 I6.2162 J4.3254
G01 X54.3576 Y78.9094
G02 X54.0547 Y79.5553 I1.9513 J1.3093
G02 X55.7125 Y78.2496 I-1.1285 J-3.1382
G01 X55.6996 Y78.2677
G02 X55.8995 Y77.9293 I-2.2700 J-1.5698
G01 X55.8953 Y77.9390
G02 X56.0246 Y77.6145 I-1.6578 J-0.8487
G01 X56.0199 Y77.6317
G01 X56.0246 Y77.6149
G01 X56.0372 Y77.5696
G02 X55.8549 Y77.6309 I10.0640 J30.2385
G01 X55.8670 Y77.6265
G02 X55.3035 Y77.9343 I1.0154 J2.5287
G01 Z-2.0000 F2400
G02 X54.4380 Y78.7892 I2.1070 J2.9985 F6000
G01 X54.4512 Y78.7718
G02 X54.3443 Y78.9297 I6.2162 J4.3254
G01 X54.3576 Y78.9094
G02 X54.0547 Y79.5553 I1.9513 J1.3093
G02 X55.7125 Y78.2496 I-1.1285 J-3.1382
G01 X55.6996 Y78.2677
G02 X55.8995 Y77.9293 I-2.2700 J-1.5698
G01 X55.8953 Y77.9390
G02 X56.0246 Y77.6145 I-1.6578 J-0.8487
G01 X56.0199 Y77.6317
G01 X56.0246 Y77.6149
G01 X56.0372 Y77.5696
G02 X55.8549 Y77.6309 I10.0640 J30.2385
G01 X55.8670 Y77.6265
G02 X55.3035 Y77.9343 I1.0154 J2.5287
G01 Z-3.0000 F2400
G02 X54.4380 Y78.7892 I2.1070 J2.9985 F6000
G01 X54.4512 Y78.7718
G02 X54.3443 Y78.9297 I6.2162 J4.3254
G01 X54.3576 Y78.9094
G02 X54.0547 Y79.5553 I1.9513 J1.3093
G02 X55.7125 Y78.2496 I-1.1285 J-3.1382
G01 X55.6996 Y78.2677
G02 X55.8995 Y77.9293 I-2.2700 J-1.5698
G01 X55.8953 Y77.9390
G02 X56.0246 Y77.6145 I-1.6578 J-0.8487
G01 X56.0199 Y77.6317
G01 X56.0246 Y77.6149
G01 X56.0372 Y77.5696
G02 X55.8549 Y77.6309 I10.0640 J30.2385
G01 X55.8670 Y77.6265
G02 X55.3035 Y77.9343 I1.0154 J2.5287
G01 Z-3.4000 F2400
G02 X54.4380 Y78.7892 I2.1070 J2.9985 F6000
G01 X54.4512 Y78.7718
G02 X54.3443 Y78.9297 I6.2162 J4.3254
G01 X54.3576 Y78.9094
G02 X54.0547 Y79.5553 I1.9513 J1.3093
G02 X55.7125 Y78.2496 I-1.1285 J-3.1382
G01 X55.6996 Y78.2677
G02 X55.8995 Y77.9293 I-2.2700 J-1.5698
G01 X55.8953 Y77.9390
G02 X56.0246 Y77.6145 I-1.6578 J-0.8487
G01 X56.0199 Y77.6317
G01 X56.0246 Y77.6149
G01 X56.0372 Y77.5696
G02 X55.8549 Y77.6309 I10.0640 J30.2385
G01 X55.8670 Y77.6265
G02 X55.3035 Y77.9343 I1.0154 J2.5287
G00 Z5.0000


(No. 6: Hole 3)
G00 X71.8330 Y77.5696 Z5.0000
G00 Z0.5000
G01 Z0.0000 F2400
G01 Z-1.0000
G02 X71.9486 Y77.8756 I1.7834 J-0.4988 F6000
G01 X71.9413 Y77.8611
G02 X72.1150 Y78.1813 I2.3793 J-1.0834
G01 X72.1097 Y78.1726
G02 X72.6979 Y78.8811 I3.0234 J-1.9116
G01 X72.6843 Y78.8678
G02 X73.7825 Y79.5452 I2.0525 J-2.0985
G01 X73.7637 Y79.5399
G01 X73.8168 Y79.5549
G01 X73.8025 Y79.5517
G01 X73.8170 Y79.5476
G02 X72.9809 Y78.2701 I-2.9273 J1.0037
G01 X72.9886 Y78.2770
G02 X72.5268 Y77.9049 I-2.5084 J2.6406
G01 X72.5413 Y77.9142
G02 X71.8330 Y77.5696 I-1.4203 J2.0193
G01 Z-2.0000 F2400
G02 X71.9486 Y77.8756 I1.7834 J-0.4988 F6000
G01 X71.9413 Y77.8611
G02 X72.1150 Y78.1813 I2.3793 J-1.0834
G01 X72.1097 Y78.1726
G02 X72.6979 Y78.8811 I3.0234 J-1.9116
G01 X72.6843 Y78.8678
G02 X73.7825 Y79.5452 I2.0525 J-2.0985
G01 X73.7637 Y79.5399
G01 X73.8168 Y79.5549
G01 X73.8025 Y79.5517
G01 X73.8170 Y79.5476
G02 X72.9809 Y78.2701 I-2.9273 J1.0037
G01 X72.9886 Y78.2770
G02 X72.5268 Y77.9049 I-2.5084 J2.6406
G01 X72.5413 Y77.9142
G02 X71.8330 Y77.5696 I-1.4203 J2.0193
G01 Z-3.0000 F2400
G02 X71.9486 Y77.8756 I1.7834 J-0.4988 F6000
G01 X71.9413 Y77.8611
G02 X72.1150 Y78.1813 I2.3793 J-1.0834
G01 X72.1097 Y78.1726
G02 X72.6979 Y78.8811 I3.0234 J-1.9116
G01 X72.6843 Y78.8678
G02 X73.7825 Y79.5452 I2.0525 J-2.0985
G01 X73.7637 Y79.5399
G01 X73.8168 Y79.5549
G01 X73.8025 Y79.5517
G01 X73.8170 Y79.5476
G02 X72.9809 Y78.2701 I-2.9273 J1.0037
G01 X72.9886 Y78.2770
G02 X72.5268 Y77.9049 I-2.5084 J2.6406
G01 X72.5413 Y77.9142
G02 X71.8330 Y77.5696 I-1.4203 J2.0193
G01 Z-3.4000 F2400
G02 X71.9486 Y77.8756 I1.7834 J-0.4988 F6000
G01 X71.9413 Y77.8611
G02 X72.1150 Y78.1813 I2.3793 J-1.0834
G01 X72.1097 Y78.1726
G02 X72.6979 Y78.8811 I3.0234 J-1.9116
G01 X72.6843 Y78.8678
G02 X73.7825 Y79.5452 I2.0525 J-2.0985
G01 X73.7637 Y79.5399
G01 X73.8168 Y79.5549
G01 X73.8025 Y79.5517
G01 X73.8170 Y79.5476
G02 X72.9809 Y78.2701 I-2.9273 J1.0037
G01 X72.9886 Y78.2770
G02 X72.5268 Y77.9049 I-2.5084 J2.6406
G01 X72.5413 Y77.9142
G02 X71.8330 Y77.5696 I-1.4203 J2.0193
G00 Z5.0000


(No. 7: Hole 12)
G00 X123.1180 Y62.7044 Z5.0000
G00 Z0.5000
G01 Z0.0000 F2400
G01 Z-1.0000
G01 X123.1105 Y62.7239 F6000
G01 X123.1026 Y62.7424
G01 X123.1129 Y62.7159
G02 X122.9915 Y63.0669 I3.1090 J1.2722
G01 X122.9999 Y63.0400
G01 X123.0042 Y63.0226
G02 X122.8186 Y65.0035 I5.4971 J1.5142
G01 X122.8170 Y64.9734
G01 X122.8152 Y64.9577
G02 X123.0014 Y66.0201 I5.2231 J-0.3680
G01 X122.9987 Y66.0092
G01 X122.9926 Y65.9891
G02 X123.1173 Y66.3458 I3.3406 J-0.9681
G02 X123.4266 Y64.1693 I-4.8713 J-1.8025
G01 Y64.1808
G01 X123.4214 Y64.1022
G01 X123.4184 Y64.0647
G01 X123.4196 Y64.0871
G01 X123.4226 Y64.1101
G02 X123.3570 Y63.5629 I-6.9106 J0.5505
G01 X123.3591 Y63.5799
G01 X123.3408 Y63.4752
G01 X123.3428 Y63.4854
G01 X123.3482 Y63.5153
G01 X123.3134 Y63.3429
G01 X123.3161 Y63.3540
G02 X123.1256 Y62.7248 I-3.6569 J0.7641
G01 X123.1422 Y62.7668
G01 X123.1180 Y62.7044
G01 Z-2.0000 F2400
G01 X123.1105 Y62.7239 F6000
G01 X123.1026 Y62.7424
G01 X123.1129 Y62.7159
G02 X122.9915 Y63.0669 I3.1090 J1.2722
G01 X122.9999 Y63.0400
G01 X123.0042 Y63.0226
G02 X122.8186 Y65.0035 I5.4971 J1.5142
G01 X122.8170 Y64.9734
G01 X122.8152 Y64.9577
G02 X123.0014 Y66.0201 I5.2231 J-0.3680
G01 X122.9987 Y66.0092
G01 X122.9926 Y65.9891
G02 X123.1173 Y66.3458 I3.3406 J-0.9681
G02 X123.4266 Y64.1693 I-4.8713 J-1.8025
G01 Y64.1808
G01 X123.4214 Y64.1022
G01 X123.4184 Y64.0647
G01 X123.4196 Y64.0871
G01 X123.4226 Y64.1101
G02 X123.3570 Y63.5629 I-6.9106 J0.5505
G01 X123.3591 Y63.5799
G01 X123.3408 Y63.4752
G01 X123.3428 Y63.4854
G01 X123.3482 Y63.5153
G01 X123.3134 Y63.3429
G01 X123.3161 Y63.3540
G02 X123.1256 Y62.7248 I-3.6569 J0.7641
G01 X123.1422 Y62.7668
G01 X123.1180 Y62.7044
G01 Z-3.0000 F2400
G01 X123.1105 Y62.7239 F6000
G01 X123.1026 Y62.7424
G01 X123.1129 Y62.7159
G02 X122.9915 Y63.0669 I3.1090 J1.2722
G01 X122.9999 Y63.0400
G01 X123.0042 Y63.0226
G02 X122.8186 Y65.0035 I5.4971 J1.5142
G01 X122.8170 Y64.9734
G01 X122.8152 Y64.9577
G02 X123.0014 Y66.0201 I5.2231 J-0.3680
G01 X122.9987 Y66.0092
G01 X122.9926 Y65.9891
G02 X123.1173 Y66.3458 I3.3406 J-0.9681
G02 X123.4266 Y64.1693 I-4.8713 J-1.8025
G01 Y64.1808
G01 X123.4214 Y64.1022
G01 X123.4184 Y64.0647
G01 X123.4196 Y64.0871
G01 X123.4226 Y64.1101
G02 X123.3570 Y63.5629 I-6.9106 J0.5505
G01 X123.3591 Y63.5799
G01 X123.3408 Y63.4752
G01 X123.3428 Y63.4854
G01 X123.3482 Y63.5153
G01 X123.3134 Y63.3429
G01 X123.3161 Y63.3540
G02 X123.1256 Y62.7248 I-3.6569 J0.7641
G01 X123.1422 Y62.7668
G01 X123.1180 Y62.7044
G01 Z-3.4000 F2400
G01 X123.1105 Y62.7239 F6000
G01 X123.1026 Y62.7424
G01 X123.1129 Y62.7159
G02 X122.9915 Y63.0669 I3.1090 J1.2722
G01 X122.9999 Y63.0400
G01 X123.0042 Y63.0226
G02 X122.8186 Y65.0035 I5.4971 J1.5142
G01 X122.8170 Y64.9734
G01 X122.8152 Y64.9577
G02 X123.0014 Y66.0201 I5.2231 J-0.3680
G01 X122.9987 Y66.0092
G01 X122.9926 Y65.9891
G02 X123.1173 Y66.3458 I3.3406 J-0.9681
G02 X123.4266 Y64.1693 I-4.8713 J-1.8025
G01 Y64.1808
G01 X123.4214 Y64.1022
G01 X123.4184 Y64.0647
G01 X123.4196 Y64.0871
G01 X123.4226 Y64.1101
G02 X123.3570 Y63.5629 I-6.9106 J0.5505
G01 X123.3591 Y63.5799
G01 X123.3408 Y63.4752
G01 X123.3428 Y63.4854
G01 X123.3482 Y63.5153
G01 X123.3134 Y63.3429
G01 X123.3161 Y63.3540
G02 X123.1256 Y62.7248 I-3.6569 J0.7641
G01 X123.1422 Y62.7668
G01 X123.1180 Y62.7044
G00 Z5.0000


(No. 8: Hole 8)
G00 X123.1179 Y97.7042 Z5.0000
G00 Z0.5000
G01 Z0.0000 F2400
G01 Z-1.0000
G01 X123.1102 Y97.7246 F6000
G01 X123.1018 Y97.7441
G01 X123.1129 Y97.7159
G02 X122.9913 Y98.0672 I3.1050 J1.2707
G01 X122.9997 Y98.0408
G01 X123.0043 Y98.0224
G02 X122.8186 Y100.0036 I5.4976 J1.5144
G01 X122.8170 Y99.9732
G01 X122.8151 Y99.9573
G02 X123.0013 Y101.0200 I5.2239 J-0.3678
G01 X122.9987 Y101.0094
G01 X122.9927 Y100.9894
G02 X123.1128 Y101.3321 I3.0192 J-0.8662
G01 X123.1219 Y101.3371
G02 X123.4266 Y99.1692 I-4.9078 J-1.7951
G01 Y99.1808
G01 X123.4214 Y99.1021
G01 X123.4184 Y99.0649
G01 X123.4196 Y99.0867
G01 X123.4225 Y99.1095
G02 X123.3570 Y98.5625 I-7.6239 J0.6366
G01 X123.3590 Y98.5793
G01 X123.3408 Y98.4748
G01 X123.3428 Y98.4852
G01 X123.3483 Y98.5156
G01 X123.3131 Y98.3419
G01 X123.3159 Y98.3528
G02 X123.2056 Y97.9414 I-4.2193 J0.9107
G01 X123.2078 Y97.9513
G02 X123.1254 Y97.7244 I-4.4041 J1.4706
G01 X123.1428 Y97.7679
G01 X123.1179 Y97.7042
G01 Z-2.0000 F2400
G01 X123.1102 Y97.7246 F6000
G01 X123.1018 Y97.7441
G01 X123.1129 Y97.7159
G02 X122.9913 Y98.0672 I3.1050 J1.2707
G01 X122.9997 Y98.0408
G01 X123.0043 Y98.0224
G02 X122.8186 Y100.0036 I5.4976 J1.5144
G01 X122.8170 Y99.9732
G01 X122.8151 Y99.9573
G02 X123.0013 Y101.0200 I5.2239 J-0.3678
G01 X122.9987 Y101.0094
G01 X122.9927 Y100.9894
G02 X123.1128 Y101.3321 I3.0192 J-0.8662
G01 X123.1219 Y101.3371
G02 X123.4266 Y99.1692 I-4.9078 J-1.7951
G01 Y99.1808
G01 X123.4214 Y99.1021
G01 X123.4184 Y99.0649
G01 X123.4196 Y99.0867
G01 X123.4225 Y99.1095
G02 X123.3570 Y98.5625 I-7.6239 J0.6366
G01 X123.3590 Y98.5793
G01 X123.3408 Y98.4748
G01 X123.3428 Y98.4852
G01 X123.3483 Y98.5156
G01 X123.3131 Y98.3419
G01 X123.3159 Y98.3528
G02 X123.2056 Y97.9414 I-4.2193 J0.9107
G01 X123.2078 Y97.9513
G02 X123.1254 Y97.7244 I-4.4041 J1.4706
G01 X123.1428 Y97.7679
G01 X123.1179 Y97.7042
G01 Z-3.0000 F2400
G01 X123.1102 Y97.7246 F6000
G01 X123.1018 Y97.7441
G01 X123.1129 Y97.7159
G02 X122.9913 Y98.0672 I3.1050 J1.2707
G01 X122.9997 Y98.0408
G01 X123.0043 Y98.0224
G02 X122.8186 Y100.0036 I5.4976 J1.5144
G01 X122.8170 Y99.9732
G01 X122.8151 Y99.9573
G02 X123.0013 Y101.0200 I5.2239 J-0.3678
G01 X122.9987 Y101.0094
G01 X122.9927 Y100.9894
G02 X123.1128 Y101.3321 I3.0192 J-0.8662
G01 X123.1219 Y101.3371
G02 X123.4266 Y99.1692 I-4.9078 J-1.7951
G01 Y99.1808
G01 X123.4214 Y99.1021
G01 X123.4184 Y99.0649
G01 X123.4196 Y99.0867
G01 X123.4225 Y99.1095
G02 X123.3570 Y98.5625 I-7.6239 J0.6366
G01 X123.3590 Y98.5793
G01 X123.3408 Y98.4748
G01 X123.3428 Y98.4852
G01 X123.3483 Y98.5156
G01 X123.3131 Y98.3419
G01 X123.3159 Y98.3528
G02 X123.2056 Y97.9414 I-4.2193 J0.9107
G01 X123.2078 Y97.9513
G02 X123.1254 Y97.7244 I-4.4041 J1.4706
G01 X123.1428 Y97.7679
G01 X123.1179 Y97.7042
G01 Z-3.4000 F2400
G01 X123.1102 Y97.7246 F6000
G01 X123.1018 Y97.7441
G01 X123.1129 Y97.7159
G02 X122.9913 Y98.0672 I3.1050 J1.2707
G01 X122.9997 Y98.0408
G01 X123.0043 Y98.0224
G02 X122.8186 Y100.0036 I5.4976 J1.5144
G01 X122.8170 Y99.9732
G01 X122.8151 Y99.9573
G02 X123.0013 Y101.0200 I5.2239 J-0.3678
G01 X122.9987 Y101.0094
G01 X122.9927 Y100.9894
G02 X123.1128 Y101.3321 I3.0192 J-0.8662
G01 X123.1219 Y101.3371
G02 X123.4266 Y99.1692 I-4.9078 J-1.7951
G01 Y99.1808
G01 X123.4214 Y99.1021
G01 X123.4184 Y99.0649
G01 X123.4196 Y99.0867
G01 X123.4225 Y99.1095
G02 X123.3570 Y98.5625 I-7.6239 J0.6366
G01 X123.3590 Y98.5793
G01 X123.3408 Y98.4748
G01 X123.3428 Y98.4852
G01 X123.3483 Y98.5156
G01 X123.3131 Y98.3419
G01 X123.3159 Y98.3528
G02 X123.2056 Y97.9414 I-4.2193 J0.9107
G01 X123.2078 Y97.9513
G02 X123.1254 Y97.7244 I-4.4041 J1.4706
G01 X123.1428 Y97.7679
G01 X123.1179 Y97.7042
G00 Z5.0000


(No. 9: Hole 4)
G00 X123.1208 Y132.7099 Z5.0000
G00 Z0.5000
G01 Z0.0000 F2400
G01 Z-1.0000
G02 X122.9275 Y133.3227 I3.0456 J1.2977 F6000
G01 X122.9318 Y133.3044
G02 X122.8045 Y134.3104 I5.4782 J1.2044
G01 X122.8054 Y134.2875
G02 X123.1168 Y136.3452 I5.0386 J0.2900
G01 X123.1080 Y136.3240
G01 X123.1192 Y136.3487
G02 X123.4171 Y134.0548 I-4.9214 J-1.8054
G01 X123.4187 Y134.0711
G02 X123.1208 Y132.7099 I-4.6749 J0.3100
G01 Z-2.0000 F2400
G02 X122.9275 Y133.3227 I3.0456 J1.2977 F6000
G01 X122.9318 Y133.3044
G02 X122.8045 Y134.3104 I5.4782 J1.2044
G01 X122.8054 Y134.2875
G02 X123.1168 Y136.3452 I5.0386 J0.2900
G01 X123.1080 Y136.3240
G01 X123.1192 Y136.3487
G02 X123.4171 Y134.0548 I-4.9214 J-1.8054
G01 X123.4187 Y134.0711
G02 X123.1208 Y132.7099 I-4.6749 J0.3100
G01 Z-3.0000 F2400
G02 X122.9275 Y133.3227 I3.0456 J1.2977 F6000
G01 X122.9318 Y133.3044
G02 X122.8045 Y134.3104 I5.4782 J1.2044
G01 X122.8054 Y134.2875
G02 X123.1168 Y136.3452 I5.0386 J0.2900
G01 X123.1080 Y136.3240
G01 X123.1192 Y136.3487
G02 X123.4171 Y134.0548 I-4.9214 J-1.8054
G01 X123.4187 Y134.0711
G02 X123.1208 Y132.7099 I-4.6749 J0.3100
G01 Z-3.4000 F2400
G02 X122.9275 Y133.3227 I3.0456 J1.2977 F6000
G01 X122.9318 Y133.3044
G02 X122.8045 Y134.3104 I5.4782 J1.2044
G01 X122.8054 Y134.2875
G02 X123.1168 Y136.3452 I5.0386 J0.2900
G01 X123.1080 Y136.3240
G01 X123.1192 Y136.3487
G02 X123.4171 Y134.0548 I-4.9214 J-1.8054
G01 X123.4187 Y134.0711
G02 X123.1208 Y132.7099 I-4.6749 J0.3100
G00 Z5.0000


(No. 10: Hole 1)
G00 X5.0108 Y132.7099 Z5.0000
G00 Z0.5000
G01 Z0.0000 F2400
G01 Z-1.0000
G02 X5.0068 Y136.3452 I5.0352 J1.8232 F6000
G01 X4.9980 Y136.3240
G01 X5.0085 Y136.3504
G02 X5.2743 Y133.7504 I-5.0924 J-1.8342
G01 X5.2763 Y133.7633
G02 X5.0108 Y132.7099 I-4.1697 J0.4907
G01 Z-2.0000 F2400
G02 X5.0068 Y136.3452 I5.0352 J1.8232 F6000
G01 X4.9980 Y136.3240
G01 X5.0085 Y136.3504
G02 X5.2743 Y133.7504 I-5.0924 J-1.8342
G01 X5.2763 Y133.7633
G02 X5.0108 Y132.7099 I-4.1697 J0.4907
G01 Z-3.0000 F2400
G02 X5.0068 Y136.3452 I5.0352 J1.8232 F6000
G01 X4.9980 Y136.3240
G01 X5.0085 Y136.3504
G02 X5.2743 Y133.7504 I-5.0924 J-1.8342
G01 X5.2763 Y133.7633
G02 X5.0108 Y132.7099 I-4.1697 J0.4907
G01 Z-3.4000 F2400
G02 X5.0068 Y136.3452 I5.0352 J1.8232 F6000
G01 X4.9980 Y136.3240
G01 X5.0085 Y136.3504
G02 X5.2743 Y133.7504 I-5.0924 J-1.8342
G01 X5.2763 Y133.7633
G02 X5.0108 Y132.7099 I-4.1697 J0.4907
G00 Z5.0000


(No. 11: Hole 5)
G00 X5.0082 Y97.7042 Z5.0000
G00 Z0.5000
G01 Z0.0000 F2400
G01 Z-1.0000
G02 X4.8828 Y98.0624 I2.9535 J1.2348 F6000
G01 X4.8892 Y98.0416
G01 X4.8927 Y98.0282
G02 X4.7069 Y99.9730 I5.4781 J1.5045
G01 X4.7051 Y99.9573
G02 X4.8165 Y100.7274 I5.4110 J-0.3896
G01 X4.8136 Y100.7133
G01 X4.8103 Y100.6997
G02 X5.0088 Y101.3456 I3.4633 J-0.7112
G02 X5.3078 Y99.0535 I-4.9742 J-1.8143
G01 X5.3096 Y99.0867
G01 X5.3114 Y99.1011
G01 X5.3078 Y99.0605
G01 X5.2742 Y98.7489
G01 X5.2755 Y98.7646
G01 X5.2778 Y98.7799
G02 X5.2289 Y98.4640 I-6.1058 J0.7831
G01 X5.2308 Y98.4748
G01 X5.2328 Y98.4852
G01 X5.2040 Y98.3459
G01 X5.2073 Y98.3586
G02 X5.0911 Y97.9286 I-4.1407 J0.8874
G01 X5.0978 Y97.9513
G02 X5.0154 Y97.7244 I-4.4041 J1.4706
G01 X5.0328 Y97.7679
G01 X5.0082 Y97.7042
G01 Z-2.0000 F2400
G02 X4.8828 Y98.0624 I2.9535 J1.2348 F6000
G01 X4.8892 Y98.0416
G01 X4.8927 Y98.0282
G02 X4.7069 Y99.9730 I5.4781 J1.5045
G01 X4.7051 Y99.9573
G02 X4.8165 Y100.7274 I5.4110 J-0.3896
G01 X4.8136 Y100.7133
G01 X4.8103 Y100.6997
G02 X5.0088 Y101.3456 I3.4633 J-0.7112
G02 X5.3078 Y99.0535 I-4.9742 J-1.8143
G01 X5.3096 Y99.0867
G01 X5.3114 Y99.1011
G01 X5.3078 Y99.0605
G01 X5.2742 Y98.7489
G01 X5.2755 Y98.7646
G01 X5.2778 Y98.7799
G02 X5.2289 Y98.4640 I-6.1058 J0.7831
G01 X5.2308 Y98.4748
G01 X5.2328 Y98.4852
G01 X5.2040 Y98.3459
G01 X5.2073 Y98.3586
G02 X5.0911 Y97.9286 I-4.1407 J0.8874
G01 X5.0978 Y97.9513
G02 X5.0154 Y97.7244 I-4.4041 J1.4706
G01 X5.0328 Y97.7679
G01 X5.0082 Y97.7042
G01 Z-3.0000 F2400
G02 X4.8828 Y98.0624 I2.9535 J1.2348 F6000
G01 X4.8892 Y98.0416
G01 X4.8927 Y98.0282
G02 X4.7069 Y99.9730 I5.4781 J1.5045
G01 X4.7051 Y99.9573
G02 X4.8165 Y100.7274 I5.4110 J-0.3896
G01 X4.8136 Y100.7133
G01 X4.8103 Y100.6997
G02 X5.0088 Y101.3456 I3.4633 J-0.7112
G02 X5.3078 Y99.0535 I-4.9742 J-1.8143
G01 X5.3096 Y99.0867
G01 X5.3114 Y99.1011
G01 X5.3078 Y99.0605
G01 X5.2742 Y98.7489
G01 X5.2755 Y98.7646
G01 X5.2778 Y98.7799
G02 X5.2289 Y98.4640 I-6.1058 J0.7831
G01 X5.2308 Y98.4748
G01 X5.2328 Y98.4852
G01 X5.2040 Y98.3459
G01 X5.2073 Y98.3586
G02 X5.0911 Y97.9286 I-4.1407 J0.8874
G01 X5.0978 Y97.9513
G02 X5.0154 Y97.7244 I-4.4041 J1.4706
G01 X5.0328 Y97.7679
G01 X5.0082 Y97.7042
G01 Z-3.4000 F2400
G02 X4.8828 Y98.0624 I2.9535 J1.2348 F6000
G01 X4.8892 Y98.0416
G01 X4.8927 Y98.0282
G02 X4.7069 Y99.9730 I5.4781 J1.5045
G01 X4.7051 Y99.9573
G02 X4.8165 Y100.7274 I5.4110 J-0.3896
G01 X4.8136 Y100.7133
G01 X4.8103 Y100.6997
G02 X5.0088 Y101.3456 I3.4633 J-0.7112
G02 X5.3078 Y99.0535 I-4.9742 J-1.8143
G01 X5.3096 Y99.0867
G01 X5.3114 Y99.1011
G01 X5.3078 Y99.0605
G01 X5.2742 Y98.7489
G01 X5.2755 Y98.7646
G01 X5.2778 Y98.7799
G02 X5.2289 Y98.4640 I-6.1058 J0.7831
G01 X5.2308 Y98.4748
G01 X5.2328 Y98.4852
G01 X5.2040 Y98.3459
G01 X5.2073 Y98.3586
G02 X5.0911 Y97.9286 I-4.1407 J0.8874
G01 X5.0978 Y97.9513
G02 X5.0154 Y97.7244 I-4.4041 J1.4706
G01 X5.0328 Y97.7679
G01 X5.0082 Y97.7042
G00 Z5.0000


(No. 12: Hole 9)
G00 X5.0081 Y62.7044 Z5.0000
G00 Z0.5000
G01 Z0.0000 F2400
G01 Z-1.0000
G02 X4.8829 Y63.0620 I2.9611 J1.2371 F6000
G01 X4.8894 Y63.0409
G01 X4.8927 Y63.0284
G02 X4.7069 Y64.9733 I5.4779 J1.5044
G01 X4.7052 Y64.9577
G02 X4.8166 Y65.7277 I5.4125 J-0.3902
G01 X4.8137 Y65.7138
G01 X4.8102 Y65.6994
G02 X5.0087 Y66.3459 I3.4942 J-0.7194
G02 X5.3078 Y64.0534 I-4.9739 J-1.8146
G01 X5.3096 Y64.0871
G01 X5.3115 Y64.1017
G01 X5.3078 Y64.0605
G01 X5.2742 Y63.7488
G01 X5.2755 Y63.7651
G01 X5.2778 Y63.7800
G02 X5.2289 Y63.4642 I-6.0419 J0.7726
G01 X5.2308 Y63.4752
G01 X5.2328 Y63.4854
G01 X5.2042 Y63.3470
G01 X5.2075 Y63.3598
G02 X5.0910 Y62.9281 I-4.1509 J0.8890
G01 X5.0976 Y62.9507
G02 X5.0156 Y62.7248 I-4.2839 J1.4279
G01 X5.0322 Y62.7668
G01 X5.0081 Y62.7044
G01 Z-2.0000 F2400
G02 X4.8829 Y63.0620 I2.9611 J1.2371 F6000
G01 X4.8894 Y63.0409
G01 X4.8927 Y63.0284
G02 X4.7069 Y64.9733 I5.4779 J1.5044
G01 X4.7052 Y64.9577
G02 X4.8166 Y65.7277 I5.4125 J-0.3902
G01 X4.8137 Y65.7138
G01 X4.8102 Y65.6994
G02 X5.0087 Y66.3459 I3.4942 J-0.7194
G02 X5.3078 Y64.0534 I-4.9739 J-1.8146
G01 X5.3096 Y64.0871
G01 X5.3115 Y64.1017
G01 X5.3078 Y64.0605
G01 X5.2742 Y63.7488
G01 X5.2755 Y63.7651
G01 X5.2778 Y63.7800
G02 X5.2289 Y63.4642 I-6.0419 J0.7726
G01 X5.2308 Y63.4752
G01 X5.2328 Y63.4854
G01 X5.2042 Y63.3470
G01 X5.2075 Y63.3598
G02 X5.0910 Y62.9281 I-4.1509 J0.8890
G01 X5.0976 Y62.9507
G02 X5.0156 Y62.7248 I-4.2839 J1.4279
G01 X5.0322 Y62.7668
G01 X5.0081 Y62.7044
G01 Z-3.0000 F2400
G02 X4.8829 Y63.0620 I2.9611 J1.2371 F6000
G01 X4.8894 Y63.0409
G01 X4.8927 Y63.0284
G02 X4.7069 Y64.9733 I5.4779 J1.5044
G01 X4.7052 Y64.9577
G02 X4.8166 Y65.7277 I5.4125 J-0.3902
G01 X4.8137 Y65.7138
G01 X4.8102 Y65.6994
G02 X5.0087 Y66.3459 I3.4942 J-0.7194
G02 X5.3078 Y64.0534 I-4.9739 J-1.8146
G01 X5.3096 Y64.0871
G01 X5.3115 Y64.1017
G01 X5.3078 Y64.0605
G01 X5.2742 Y63.7488
G01 X5.2755 Y63.7651
G01 X5.2778 Y63.7800
G02 X5.2289 Y63.4642 I-6.0419 J0.7726
G01 X5.2308 Y63.4752
G01 X5.2328 Y63.4854
G01 X5.2042 Y63.3470
G01 X5.2075 Y63.3598
G02 X5.0910 Y62.9281 I-4.1509 J0.8890
G01 X5.0976 Y62.9507
G02 X5.0156 Y62.7248 I-4.2839 J1.4279
G01 X5.0322 Y62.7668
G01 X5.0081 Y62.7044
G01 Z-3.4000 F2400
G02 X4.8829 Y63.0620 I2.9611 J1.2371 F6000
G01 X4.8894 Y63.0409
G01 X4.8927 Y63.0284
G02 X4.7069 Y64.9733 I5.4779 J1.5044
G01 X4.7052 Y64.9577
G02 X4.8166 Y65.7277 I5.4125 J-0.3902
G01 X4.8137 Y65.7138
G01 X4.8102 Y65.6994
G02 X5.0087 Y66.3459 I3.4942 J-0.7194
G02 X5.3078 Y64.0534 I-4.9739 J-1.8146
G01 X5.3096 Y64.0871
G01 X5.3115 Y64.1017
G01 X5.3078 Y64.0605
G01 X5.2742 Y63.7488
G01 X5.2755 Y63.7651
G01 X5.2778 Y63.7800
G02 X5.2289 Y63.4642 I-6.0419 J0.7726
G01 X5.2308 Y63.4752
G01 X5.2328 Y63.4854
G01 X5.2042 Y63.3470
G01 X5.2075 Y63.3598
G02 X5.0910 Y62.9281 I-4.1509 J0.8890
G01 X5.0976 Y62.9507
G02 X5.0156 Y62.7248 I-4.2839 J1.4279
G01 X5.0322 Y62.7668
G01 X5.0081 Y62.7044
G00 Z5.0000


(No. 13: Part 2)
G00 X31.0880 Y51.8774 Z5.0000
G00 Z0.5000
G01 Z0.0000 F2400
G01 Z-1.0000
G03 X34.5692 Y50.4359 I1446.5749 J3488.5347 F6000
G01 X46.3017 Y45.5771
G03 X54.8254 Y36.0875 I1810.0492 J1617.2261
G02 X56.4545 Y34.2734 I-6099.9480 J-5479.4990
G03 X57.0026 Y33.7159 I2.3571 J1.7693
G03 X57.9361 Y33.4125 I0.9335 J1.2841
G01 X69.9361
G03 X71.1412 Y33.9658 I-0.0009 J1.5911
G01 X71.5837 Y34.4584
G01 X79.8786 Y43.6933
G03 X80.8839 Y44.8131 I-1067.4563 J959.3690
G03 X81.5706 Y45.5774 I-542.7296 J488.3078
G03 X97.1605 Y52.0948 I-809.8263 J1959.0545
G03 X110.8100 Y62.6421 I-1272.2603 J1660.5672
G03 X119.2038 Y73.5805 I-7056.3244 J5423.5048
G01 X119.6584 Y74.1734
G02 X120.9765 Y75.8907 I1547.8313 J-1186.6043
G03 X121.5419 Y77.0286 I-3.3404 J2.3694
G02 X127.0463 Y90.3168 I841.1261 J-340.6371
G03 X127.8134 Y92.3170 I-19.0830 J8.4651
G02 X127.8833 Y92.8482 I3033.5216 J-399.1711
G01 X129.3794 Y104.2044
G03 X129.4432 Y105.1732 I-2.4673 J0.6490
G03 X127.8741 Y106.5195 I-1.5691 J-0.2412
G01 X119.8741
G03 X118.7242 Y106.0264 I0.0000 J-1.5875
G01 X110.6001 Y97.4904
G03 X110.2834 Y97.0036 I1.1499 J-1.0944
G01 X105.4173 Y85.2586
G01 X97.8057 Y75.3382
G01 X87.8854 Y67.7247
G01 X76.3337 Y62.9407
G01 X63.9361 Y61.3092
G01 X51.5404 Y62.9407
G01 X39.9866 Y67.7248
G01 X30.0663 Y75.3382
G01 X22.4548 Y85.2586
G01 X17.5887 Y97.0036
G03 X17.2720 Y97.4904 I-1.4666 J-0.6076
G01 X9.1479 Y106.0264
G03 X7.9980 Y106.5195 I-1.1499 J-1.0944
G01 X0.0000
G03 X-1.5739 Y104.7249 I0.0000 J-1.5875
G02 X-0.1938 Y94.2353 I-5888.1521 J-780.0705
G01 X-0.0774 Y93.3530
G01 X0.0556 Y92.3430
G01 X0.1712 Y91.8972
G01 X5.1637 Y79.8453
G03 X6.0253 Y77.7652 I4221.7698 J1747.3628
G03 X6.8246 Y75.9837 I13.8603 J5.1492
G02 X15.2511 Y65.0016 I-2138.8704 J-1649.8609
G02 X16.8108 Y62.9691 I-3643.1647 J-2797.2450
G01 X16.9928 Y62.7320
G01 X17.3693 Y62.3347
G02 X20.1142 Y60.2278 I-796.2228 J-1040.2005
G01 X20.3587 Y60.0405
G01 X31.0880 Y51.8774
G01 Z-2.0000 F2400
G03 X34.5692 Y50.4359 I1446.5749 J3488.5347 F6000
G01 X46.3017 Y45.5771
G03 X54.8254 Y36.0875 I1810.0492 J1617.2261
G02 X56.4545 Y34.2734 I-6099.9480 J-5479.4990
G03 X57.0026 Y33.7159 I2.3571 J1.7693
G03 X57.9361 Y33.4125 I0.9335 J1.2841
G01 X69.9361
G03 X71.1412 Y33.9658 I-0.0009 J1.5911
G01 X71.5837 Y34.4584
G01 X79.8786 Y43.6933
G03 X80.8839 Y44.8131 I-1067.4563 J959.3690
G03 X81.5706 Y45.5774 I-542.7296 J488.3078
G03 X97.1605 Y52.0948 I-809.8263 J1959.0545
G03 X110.8100 Y62.6421 I-1272.2603 J1660.5672
G03 X119.2038 Y73.5805 I-7056.3244 J5423.5048
G01 X119.6584 Y74.1734
G02 X120.9765 Y75.8907 I1547.8313 J-1186.6043
G03 X121.5419 Y77.0286 I-3.3404 J2.3694
G02 X127.0463 Y90.3168 I841.1261 J-340.6371
G03 X127.8134 Y92.3170 I-19.0830 J8.4651
G02 X127.8833 Y92.8482 I3033.5216 J-399.1711
G01 X129.3794 Y104.2044
G03 X129.4432 Y105.1732 I-2.4673 J0.6490
G03 X127.8741 Y106.5195 I-1.5691 J-0.2412
G01 X119.8741
G03 X118.7242 Y106.0264 I0.0000 J-1.5875
G01 X110.6001 Y97.4904
G03 X110.2834 Y97.0036 I1.1499 J-1.0944
G01 X105.4173 Y85.2586
G01 X97.8057 Y75.3382
G01 X87.8854 Y67.7247
G01 X76.3337 Y62.9407
G01 X63.9361 Y61.3092
G01 X51.5404 Y62.9407
G01 X39.9866 Y67.7248
G01 X30.0663 Y75.3382
G01 X22.4548 Y85.2586
G01 X17.5887 Y97.0036
G03 X17.2720 Y97.4904 I-1.4666 J-0.6076
G01 X9.1479 Y106.0264
G03 X7.9980 Y106.5195 I-1.1499 J-1.0944
G01 X0.0000
G03 X-1.5739 Y104.7249 I0.0000 J-1.5875
G02 X-0.1938 Y94.2353 I-5888.1521 J-780.0705
G01 X-0.0774 Y93.3530
G01 X0.0556 Y92.3430
G01 X0.1712 Y91.8972
G01 X5.1637 Y79.8453
G03 X6.0253 Y77.7652 I4221.7698 J1747.3628
G03 X6.8246 Y75.9837 I13.8603 J5.1492
G02 X15.2511 Y65.0016 I-2138.8704 J-1649.8609
G02 X16.8108 Y62.9691 I-3643.1647 J-2797.2450
G01 X16.9928 Y62.7320
G01 X17.3693 Y62.3347
G02 X20.1142 Y60.2278 I-796.2228 J-1040.2005
G01 X20.3587 Y60.0405
G01 X31.0880 Y51.8774
G01 Z-3.0000 F2400
G03 X34.5692 Y50.4359 I1446.5749 J3488.5347 F6000
G01 X46.3017 Y45.5771
G03 X54.8254 Y36.0875 I1810.0492 J1617.2261
G02 X56.4545 Y34.2734 I-6099.9480 J-5479.4990
G03 X57.0026 Y33.7159 I2.3571 J1.7693
G03 X57.9361 Y33.4125 I0.9335 J1.2841
G01 X69.9361
G03 X71.1412 Y33.9658 I-0.0009 J1.5911
G01 X71.5837 Y34.4584
G01 X79.8786 Y43.6933
G03 X80.8839 Y44.8131 I-1067.4563 J959.3690
G03 X81.5706 Y45.5774 I-542.7296 J488.3078
G03 X97.1605 Y52.0948 I-809.8263 J1959.0545
G03 X110.8100 Y62.6421 I-1272.2603 J1660.5672
G03 X119.2038 Y73.5805 I-7056.3244 J5423.5048
G01 X119.6584 Y74.1734
G02 X120.9765 Y75.8907 I1547.8313 J-1186.6043
G03 X121.5419 Y77.0286 I-3.3404 J2.3694
G02 X127.0463 Y90.3168 I841.1261 J-340.6371
G03 X127.8134 Y92.3170 I-19.0830 J8.4651
G02 X127.8833 Y92.8482 I3033.5216 J-399.1711
G01 X129.3794 Y104.2044
G03 X129.4432 Y105.1732 I-2.4673 J0.6490
G03 X127.8741 Y106.5195 I-1.5691 J-0.2412
G01 X119.8741
G03 X118.7242 Y106.0264 I0.0000 J-1.5875
G01 X110.6001 Y97.4904
G03 X110.2834 Y97.0036 I1.1499 J-1.0944
G01 X105.4173 Y85.2586
G01 X97.8057 Y75.3382
G01 X87.8854 Y67.7247
G01 X76.3337 Y62.9407
G01 X63.9361 Y61.3092
G01 X51.5404 Y62.9407
G01 X39.9866 Y67.7248
G01 X30.0663 Y75.3382
G01 X22.4548 Y85.2586
G01 X17.5887 Y97.0036
G03 X17.2720 Y97.4904 I-1.4666 J-0.6076
G01 X9.1479 Y106.0264
G03 X7.9980 Y106.5195 I-1.1499 J-1.0944
G01 X0.0000
G03 X-1.5739 Y104.7249 I0.0000 J-1.5875
G02 X-0.1938 Y94.2353 I-5888.1521 J-780.0705
G01 X-0.0774 Y93.3530
G01 X0.0556 Y92.3430
G01 X0.1712 Y91.8972
G01 X5.1637 Y79.8453
G03 X6.0253 Y77.7652 I4221.7698 J1747.3628
G03 X6.8246 Y75.9837 I13.8603 J5.1492
G02 X15.2511 Y65.0016 I-2138.8704 J-1649.8609
G02 X16.8108 Y62.9691 I-3643.1647 J-2797.2450
G01 X16.9928 Y62.7320
G01 X17.3693 Y62.3347
G02 X20.1142 Y60.2278 I-796.2228 J-1040.2005
G01 X20.3587 Y60.0405
G01 X31.0880 Y51.8774
G01 Z-3.4000 F2400
G03 X34.5692 Y50.4359 I1446.5749 J3488.5347 F6000
G01 X46.3017 Y45.5771
G03 X54.8254 Y36.0875 I1810.0492 J1617.2261
G02 X56.4545 Y34.2734 I-6099.9480 J-5479.4990
G03 X57.0026 Y33.7159 I2.3571 J1.7693
G03 X57.9361 Y33.4125 I0.9335 J1.2841
G01 X69.9361
G03 X71.1412 Y33.9658 I-0.0009 J1.5911
G01 X71.5837 Y34.4584
G01 X79.8786 Y43.6933
G03 X80.8839 Y44.8131 I-1067.4563 J959.3690
G03 X81.5706 Y45.5774 I-542.7296 J488.3078
G03 X97.1605 Y52.0948 I-809.8263 J1959.0545
G03 X110.8100 Y62.6421 I-1272.2603 J1660.5672
G03 X119.2038 Y73.5805 I-7056.3244 J5423.5048
G01 X119.6584 Y74.1734
G02 X120.9765 Y75.8907 I1547.8313 J-1186.6043
G03 X121.5419 Y77.0286 I-3.3404 J2.3694
G02 X127.0463 Y90.3168 I841.1261 J-340.6371
G03 X127.8134 Y92.3170 I-19.0830 J8.4651
G02 X127.8833 Y92.8482 I3033.5216 J-399.1711
G01 X129.3794 Y104.2044
G03 X129.4432 Y105.1732 I-2.4673 J0.6490
G03 X127.8741 Y106.5195 I-1.5691 J-0.2412
G01 X119.8741
G03 X118.7242 Y106.0264 I0.0000 J-1.5875
G01 X110.6001 Y97.4904
G03 X110.2834 Y97.0036 I1.1499 J-1.0944
G01 X105.4173 Y85.2586
G01 X97.8057 Y75.3382
G01 X87.8854 Y67.7247
G01 X76.3337 Y62.9407
G01 X63.9361 Y61.3092
G01 X51.5404 Y62.9407
G01 X39.9866 Y67.7248
G01 X30.0663 Y75.3382
G01 X22.4548 Y85.2586
G01 X17.5887 Y97.0036
G03 X17.2720 Y97.4904 I-1.4666 J-0.6076
G01 X9.1479 Y106.0264
G03 X7.9980 Y106.5195 I-1.1499 J-1.0944
G01 X0.0000
G03 X-1.5739 Y104.7249 I0.0000 J-1.5875
G02 X-0.1938 Y94.2353 I-5888.1521 J-780.0705
G01 X-0.0774 Y93.3530
G01 X0.0556 Y92.3430
G01 X0.1712 Y91.8972
G01 X5.1637 Y79.8453
G03 X6.0253 Y77.7652 I4221.7698 J1747.3628
G03 X6.8246 Y75.9837 I13.8603 J5.1492
G02 X15.2511 Y65.0016 I-2138.8704 J-1649.8609
G02 X16.8108 Y62.9691 I-3643.1647 J-2797.2450
G01 X16.9928 Y62.7320
G01 X17.3693 Y62.3347
G02 X20.1142 Y60.2278 I-796.2228 J-1040.2005
G01 X20.3587 Y60.0405
G01 X31.0880 Y51.8774
G00 Z5.0000


(No. 14: Part 3)
G00 X19.7702 Y25.4921 Z5.0000
G00 Z0.5000
G01 Z0.0000 F2400
G01 Z-1.0000
G03 X31.0880 Y16.8774 I1025.9821 J1336.1755 F6000
G03 X34.5692 Y15.4359 I1446.5749 J3488.5347
G01 X46.3017 Y10.5771
G03 X54.8254 Y1.0875 I1810.0492 J1617.2261
G02 X56.4545 Y-0.7266 I-6099.9480 J-5479.4990
G03 X57.0026 Y-1.2841 I2.3571 J1.7693
G03 X57.9361 Y-1.5875 I0.9335 J1.2841
G01 X69.9361
G03 X71.1412 Y-1.0342 I-0.0009 J1.5911
G01 X71.5837 Y-0.5416
G01 X79.8786 Y8.6933
G03 X80.8839 Y9.8131 I-1067.4563 J959.3690
G03 X81.5706 Y10.5774 I-542.7296 J488.3078
G03 X97.1605 Y17.0948 I-809.8263 J1959.0545
G03 X110.8100 Y27.6421 I-1272.7409 J1661.1934
G03 X119.2038 Y38.5805 I-7795.4309 J5990.6245
G01 X119.6585 Y39.1734
G02 X120.9763 Y40.8905 I1801.7020 J-1381.4354
G03 X121.5419 Y42.0287 I-3.3427 J2.3709
G02 X127.0463 Y55.3168 I841.2924 J-340.7076
G03 X127.8134 Y57.3170 I-19.0868 J8.4666
G02 X127.8833 Y57.8483 I2121.8148 J-279.0687
G01 X129.3794 Y69.2043
G03 X129.4432 Y70.1733 I-2.4675 J0.6490
G03 X127.8741 Y71.5195 I-1.5691 J-0.2412
G01 X119.8741
G03 X118.7242 Y71.0265 I0.0000 J-1.5875
G01 X110.6001 Y62.4905
G03 X110.2834 Y62.0037 I1.1499 J-1.0944
G01 X105.4173 Y50.2586
G01 X97.8057 Y40.3381
G01 X87.8854 Y32.7248
G01 X76.3337 Y27.9408
G01 X63.9361 Y26.3092
G01 X51.5404 Y27.9408
G01 X39.9866 Y32.7248
G01 X30.0663 Y40.3381
G01 X22.4548 Y50.2586
G01 X17.5887 Y62.0037
G03 X17.2720 Y62.4905 I-1.4666 J-0.6076
G01 X9.1479 Y71.0265
G03 X7.9980 Y71.5195 I-1.1499 J-1.0944
G01 X0.0000
G03 X-1.5739 Y69.7249 I0.0000 J-1.5875
G02 X-0.1938 Y59.2353 I-5892.4225 J-780.6289
G01 X-0.0774 Y58.3530
G01 X0.0556 Y57.3430
G01 X0.1712 Y56.8972
G01 X5.1637 Y44.8453
G03 X6.0253 Y42.7651 I4278.1482 J1770.7393
G03 X6.8246 Y40.9836 I13.8705 J5.1536
G02 X15.2514 Y30.0013 I-2807.7114 J-2163.0670
G02 X16.8108 Y27.9691 I-4218.2316 J-3238.5621
G01 X16.9926 Y27.7323
G01 X17.3693 Y27.3346
G01 X18.2851 Y26.6316
G03 X19.7702 Y25.4921 I2283.2417 J2974.0573
G01 Z-2.0000 F2400
G03 X31.0880 Y16.8774 I1025.9821 J1336.1755 F6000
G03 X34.5692 Y15.4359 I1446.5749 J3488.5347
G01 X46.3017 Y10.5771
G03 X54.8254 Y1.0875 I1810.0492 J1617.2261
G02 X56.4545 Y-0.7266 I-6099.9480 J-5479.4990
G03 X57.0026 Y-1.2841 I2.3571 J1.7693
G03 X57.9361 Y-1.5875 I0.9335 J1.2841
G01 X69.9361
G03 X71.1412 Y-1.0342 I-0.0009 J1.5911
G01 X71.5837 Y-0.5416
G01 X79.8786 Y8.6933
G03 X80.8839 Y9.8131 I-1067.4563 J959.3690
G03 X81.5706 Y10.5774 I-542.7296 J488.3078
G03 X97.1605 Y17.0948 I-809.8263 J1959.0545
G03 X110.8100 Y27.6421 I-1272.7409 J1661.1934
G03 X119.2038 Y38.5805 I-7795.4309 J5990.6245
G01 X119.6585 Y39.1734
G02 X120.9763 Y40.8905 I1801.7020 J-1381.4354
G03 X121.5419 Y42.0287 I-3.3427 J2.3709
G02 X127.0463 Y55.3168 I841.2924 J-340.7076
G03 X127.8134 Y57.3170 I-19.0868 J8.4666
G02 X127.8833 Y57.8483 I2121.8148 J-279.0687
G01 X129.3794 Y69.2043
G03 X129.4432 Y70.1733 I-2.4675 J0.6490
G03 X127.8741 Y71.5195 I-1.5691 J-0.2412
G01 X119.8741
G03 X118.7242 Y71.0265 I0.0000 J-1.5875
G01 X110.6001 Y62.4905
G03 X110.2834 Y62.0037 I1.1499 J-1.0944
G01 X105.4173 Y50.2586
G01 X97.8057 Y40.3381
G01 X87.8854 Y32.7248
G01 X76.3337 Y27.9408
G01 X63.9361 Y26.3092
G01 X51.5404 Y27.9408
G01 X39.9866 Y32.7248
G01 X30.0663 Y40.3381
G01 X22.4548 Y50.2586
G01 X17.5887 Y62.0037
G03 X17.2720 Y62.4905 I-1.4666 J-0.6076
G01 X9.1479 Y71.0265
G03 X7.9980 Y71.5195 I-1.1499 J-1.0944
G01 X0.0000
G03 X-1.5739 Y69.7249 I0.0000 J-1.5875
G02 X-0.1938 Y59.2353 I-5892.4225 J-780.6289
G01 X-0.0774 Y58.3530
G01 X0.0556 Y57.3430
G01 X0.1712 Y56.8972
G01 X5.1637 Y44.8453
G03 X6.0253 Y42.7651 I4278.1482 J1770.7393
G03 X6.8246 Y40.9836 I13.8705 J5.1536
G02 X15.2514 Y30.0013 I-2807.7114 J-2163.0670
G02 X16.8108 Y27.9691 I-4218.2316 J-3238.5621
G01 X16.9926 Y27.7323
G01 X17.3693 Y27.3346
G01 X18.2851 Y26.6316
G03 X19.7702 Y25.4921 I2283.2417 J2974.0573
G01 Z-3.0000 F2400
G03 X31.0880 Y16.8774 I1025.9821 J1336.1755 F6000
G03 X34.5692 Y15.4359 I1446.5749 J3488.5347
G01 X46.3017 Y10.5771
G03 X54.8254 Y1.0875 I1810.0492 J1617.2261
G02 X56.4545 Y-0.7266 I-6099.9480 J-5479.4990
G03 X57.0026 Y-1.2841 I2.3571 J1.7693
G03 X57.9361 Y-1.5875 I0.9335 J1.2841
G01 X69.9361
G03 X71.1412 Y-1.0342 I-0.0009 J1.5911
G01 X71.5837 Y-0.5416
G01 X79.8786 Y8.6933
G03 X80.8839 Y9.8131 I-1067.4563 J959.3690
G03 X81.5706 Y10.5774 I-542.7296 J488.3078
G03 X97.1605 Y17.0948 I-809.8263 J1959.0545
G03 X110.8100 Y27.6421 I-1272.7409 J1661.1934
G03 X119.2038 Y38.5805 I-7795.4309 J5990.6245
G01 X119.6585 Y39.1734
G02 X120.9763 Y40.8905 I1801.7020 J-1381.4354
G03 X121.5419 Y42.0287 I-3.3427 J2.3709
G02 X127.0463 Y55.3168 I841.2924 J-340.7076
G03 X127.8134 Y57.3170 I-19.0868 J8.4666
G02 X127.8833 Y57.8483 I2121.8148 J-279.0687
G01 X129.3794 Y69.2043
G03 X129.4432 Y70.1733 I-2.4675 J0.6490
G03 X127.8741 Y71.5195 I-1.5691 J-0.2412
G01 X119.8741
G03 X118.7242 Y71.0265 I0.0000 J-1.5875
G01 X110.6001 Y62.4905
G03 X110.2834 Y62.0037 I1.1499 J-1.0944
G01 X105.4173 Y50.2586
G01 X97.8057 Y40.3381
G01 X87.8854 Y32.7248
G01 X76.3337 Y27.9408
G01 X63.9361 Y26.3092
G01 X51.5404 Y27.9408
G01 X39.9866 Y32.7248
G01 X30.0663 Y40.3381
G01 X22.4548 Y50.2586
G01 X17.5887 Y62.0037
G03 X17.2720 Y62.4905 I-1.4666 J-0.6076
G01 X9.1479 Y71.0265
G03 X7.9980 Y71.5195 I-1.1499 J-1.0944
G01 X0.0000
G03 X-1.5739 Y69.7249 I0.0000 J-1.5875
G02 X-0.1938 Y59.2353 I-5892.4225 J-780.6289
G01 X-0.0774 Y58.3530
G01 X0.0556 Y57.3430
G01 X0.1712 Y56.8972
G01 X5.1637 Y44.8453
G03 X6.0253 Y42.7651 I4278.1482 J1770.7393
G03 X6.8246 Y40.9836 I13.8705 J5.1536
G02 X15.2514 Y30.0013 I-2807.7114 J-2163.0670
G02 X16.8108 Y27.9691 I-4218.2316 J-3238.5621
G01 X16.9926 Y27.7323
G01 X17.3693 Y27.3346
G01 X18.2851 Y26.6316
G03 X19.7702 Y25.4921 I2283.2417 J2974.0573
G01 Z-3.4000 F2400
G03 X31.0880 Y16.8774 I1025.9821 J1336.1755 F6000
G03 X34.5692 Y15.4359 I1446.5749 J3488.5347
G01 X46.3017 Y10.5771
G03 X54.8254 Y1.0875 I1810.0492 J1617.2261
G02 X56.4545 Y-0.7266 I-6099.9480 J-5479.4990
G03 X57.0026 Y-1.2841 I2.3571 J1.7693
G03 X57.9361 Y-1.5875 I0.9335 J1.2841
G01 X69.9361
G03 X71.1412 Y-1.0342 I-0.0009 J1.5911
G01 X71.5837 Y-0.5416
G01 X79.8786 Y8.6933
G03 X80.8839 Y9.8131 I-1067.4563 J959.3690
G03 X81.5706 Y10.5774 I-542.7296 J488.3078
G03 X97.1605 Y17.0948 I-809.8263 J1959.0545
G03 X110.8100 Y27.6421 I-1272.7409 J1661.1934
G03 X119.2038 Y38.5805 I-7795.4309 J5990.6245
G01 X119.6585 Y39.1734
G02 X120.9763 Y40.8905 I1801.7020 J-1381.4354
G03 X121.5419 Y42.0287 I-3.3427 J2.3709
G02 X127.0463 Y55.3168 I841.2924 J-340.7076
G03 X127.8134 Y57.3170 I-19.0868 J8.4666
G02 X127.8833 Y57.8483 I2121.8148 J-279.0687
G01 X129.3794 Y69.2043
G03 X129.4432 Y70.1733 I-2.4675 J0.6490
G03 X127.8741 Y71.5195 I-1.5691 J-0.2412
G01 X119.8741
G03 X118.7242 Y71.0265 I0.0000 J-1.5875
G01 X110.6001 Y62.4905
G03 X110.2834 Y62.0037 I1.1499 J-1.0944
G01 X105.4173 Y50.2586
G01 X97.8057 Y40.3381
G01 X87.8854 Y32.7248
G01 X76.3337 Y27.9408
G01 X63.9361 Y26.3092
G01 X51.5404 Y27.9408
G01 X39.9866 Y32.7248
G01 X30.0663 Y40.3381
G01 X22.4548 Y50.2586
G01 X17.5887 Y62.0037
G03 X17.2720 Y62.4905 I-1.4666 J-0.6076
G01 X9.1479 Y71.0265
G03 X7.9980 Y71.5195 I-1.1499 J-1.0944
G01 X0.0000
G03 X-1.5739 Y69.7249 I0.0000 J-1.5875
G02 X-0.1938 Y59.2353 I-5892.4225 J-780.6289
G01 X-0.0774 Y58.3530
G01 X0.0556 Y57.3430
G01 X0.1712 Y56.8972
G01 X5.1637 Y44.8453
G03 X6.0253 Y42.7651 I4278.1482 J1770.7393
G03 X6.8246 Y40.9836 I13.8705 J5.1536
G02 X15.2514 Y30.0013 I-2807.7114 J-2163.0670
G02 X16.8108 Y27.9691 I-4218.2316 J-3238.5621
G01 X16.9926 Y27.7323
G01 X17.3693 Y27.3346
G01 X18.2851 Y26.6316
G03 X19.7702 Y25.4921 I2283.2417 J2974.0573
G00 Z5.0000


(No. 15: Part 1)
G00 X56.7564 Y68.9377 Z5.0000
G00 Z0.5000
G01 Z0.0000 F2400
G01 Z-1.0000
G03 X57.9361 Y68.4125 I1.1796 J1.0624 F6000
G01 X61.6432
G03 X63.2307 Y70.0000 I0.0000 J1.5875
G03 X63.2306 Y70.5033 I-914.7585 J-0.0029
G01 Y75.5190
G01 X63.2305 Y77.3881
G03 X61.6430 Y78.9755 I-1.5875 J-0.0001
G01 X60.8837
G01 Y83.2285
G01 X66.9888
G01 Y78.9755
G03 X65.8187 Y78.9215 I-0.4383 J-3.2013
G03 X64.6420 Y77.3887 I0.4108 J-1.5334
G01 X64.6406 Y73.7878
G01 Y70.0000
G03 X66.2281 Y68.4125 I1.5875 J0.0000
G01 X69.9361
G03 X71.2220 Y69.0548 I-0.0104 J1.6293
G01 X71.6946 Y69.5807
G01 X73.0183 Y71.0543
G01 X73.9375 Y72.0777
G03 X78.0338 Y76.6401 I-4373.6973 J3930.9981
G03 X81.5707 Y80.5774 I-2796.7040 J2515.8188
G03 X89.2859 Y83.7718 I-3054.9329 J7389.5060
G03 X94.6117 Y85.9785 I-2547.8332 J6156.6248
G01 X95.4559 Y86.3274
G01 X97.1606 Y87.0948
G03 X103.2375 Y91.7588 I-3777.9673 J4928.7799
G03 X109.3627 Y96.4597 I-4311.4109 J5623.9893
G01 X110.8099 Y97.6418
G03 X115.8051 Y104.1509 I-5793.7851 J4451.4355
G02 X119.6419 Y109.1504 I7512.4220 J-5761.4414
G01 X120.7366 Y110.5763
G01 X121.2635 Y111.3570
G03 X124.9864 Y120.3449 I-8018.1795 J3326.5039
G03 X127.8133 Y127.3169 I-221.4097 J93.8353
G03 X128.1026 Y129.5133 I-4157.1409 J548.6231
G01 X128.6198 Y133.4397
G01 X129.1682 Y137.6022
G01 X129.4480 Y139.7245
G03 X127.8741 Y141.5195 I-1.5739 J0.2075
G01 X119.8741
G03 X118.3002 Y140.1395 I0.0000 J-1.5875
G01 X118.1001 Y138.6219
G01 X118.0250 Y138.0519
G03 X117.0916 Y130.9612 I6859.6711 J-906.6153
G01 X116.9637 Y129.9993
G02 X113.6523 Y122.0015 I-9171.7594 J3792.8366
G01 X113.3827 Y121.3516
G01 X112.1556 Y118.3905
G01 X111.8859 Y117.7401
G01 X111.4793 Y116.7586
G02 X108.0553 Y112.2947 I-4196.2290 J3215.1390
G02 X102.7547 Y105.3888 I-5486.6056 J4205.8023
G03 X96.5558 Y100.6300 I910.0402 J-1191.8250
G01 X95.8491 Y100.0885
G02 X91.6060 Y96.8333 I-4253.3760 J5539.8581
G01 X91.3838 Y96.6620
G03 X83.3419 Y93.3310 I3409.9272 J-8243.7089
G02 X78.1460 Y91.1787 I-2485.0413 J5991.9231
G02 X69.5145 Y90.0438 I-751.8867 J5685.0440
G01 X67.3691 Y89.7615
G01 X64.4303 Y89.3741
G01 X63.9361 Y89.3092
G01 X55.3041 Y90.4442
G03 X49.7259 Y91.1789 I-389.4845 J-2935.8388
G01 X49.6106 Y91.2267
G01 X39.6850 Y95.3380
G01 X38.6557 Y95.7647
G01 X36.4864 Y96.6628
G01 X35.2889 Y97.5816
G01 X31.5068 Y100.4848
G01 X29.5798 Y101.9628
G01 X27.8639 Y103.2797
G01 X25.1163 Y105.3882
G01 X24.5848 Y106.0808
G01 X23.7024 Y107.2312
G01 X23.0094 Y108.1341
G01 X21.6929 Y109.8500
G02 X16.3921 Y116.7590 I2478.6229 J1907.1602
G03 X14.2385 Y121.9553 I-5862.7757 J-2426.7454
G03 X12.2179 Y126.8347 I-3171.8116 J-1310.6534
G01 X10.9088 Y129.9979
G01 X10.8404 Y130.5184
G03 X10.1792 Y135.5258 I-7496.5493 J-987.3898
G03 X9.5518 Y140.2575 I-128.3842 J-14.6156
G03 X7.9980 Y141.5195 I-1.5538 J-0.3255
G01 X0.0000
G03 X-1.5739 Y139.7248 I0.0000 J-1.5875
G03 X-0.5011 Y131.5752 I5295.6219 J692.9787
G01 X-0.4188 Y130.9502
G01 X0.0448 Y127.4291
G01 X0.1712 Y126.8972
G03 X2.7581 Y120.6529 I3576.1096 J1477.8469
G01 X4.2203 Y117.1217
G03 X6.2386 Y112.2515 I3127.4386 J1293.2033
G01 X6.8247 Y110.9836
G02 X10.3303 Y106.4121 I-7220.6341 J-5540.6240
G01 X12.9042 Y103.0594
G03 X16.7571 Y98.0381 I3802.9298 J2914.0989
G01 X17.3693 Y97.3347
G03 X26.7597 Y90.1303 I4719.9924 J6142.4745
G03 X31.0880 Y86.8774 I85.0020 J108.5981
G01 X37.9487 Y84.0370
G03 X45.2981 Y80.9928 I1912.8921 J4607.8070
G01 X46.3017 Y80.5771
G03 X49.9467 Y76.5171 I2351.1410 J2107.1468
G01 X51.3166 Y74.9918
G02 X55.5303 Y70.3011 I-4120.1830 J-3705.3134
G01 X56.4909 Y69.2325
G01 X56.7564 Y68.9377
G01 Z-2.0000 F2400
G03 X57.9361 Y68.4125 I1.1796 J1.0624 F6000
G01 X61.6432
G03 X63.2307 Y70.0000 I0.0000 J1.5875
G03 X63.2306 Y70.5033 I-914.7585 J-0.0029
G01 Y75.5190
G01 X63.2305 Y77.3881
G03 X61.6430 Y78.9755 I-1.5875 J-0.0001
G01 X60.8837
G01 Y83.2285
G01 X66.9888
G01 Y78.9755
G03 X65.8187 Y78.9215 I-0.4383 J-3.2013
G03 X64.6420 Y77.3887 I0.4108 J-1.5334
G01 X64.6406 Y73.7878
G01 Y70.0000
G03 X66.2281 Y68.4125 I1.5875 J0.0000
G01 X69.9361
G03 X71.2220 Y69.0548 I-0.0104 J1.6293
G01 X71.6946 Y69.5807
G01 X73.0183 Y71.0543
G01 X73.9375 Y72.0777
G03 X78.0338 Y76.6401 I-4373.6973 J3930.9981
G03 X81.5707 Y80.5774 I-2796.7040 J2515.8188
G03 X89.2859 Y83.7718 I-3054.9329 J7389.5060
G03 X94.6117 Y85.9785 I-2547.8332 J6156.6248
G01 X95.4559 Y86.3274
G01 X97.1606 Y87.0948
G03 X103.2375 Y91.7588 I-3777.9673 J4928.7799
G03 X109.3627 Y96.4597 I-4311.4109 J5623.9893
G01 X110.8099 Y97.6418
G03 X115.8051 Y104.1509 I-5793.7851 J4451.4355
G02 X119.6419 Y109.1504 I7512.4220 J-5761.4414
G01 X120.7366 Y110.5763
G01 X121.2635 Y111.3570
G03 X124.9864 Y120.3449 I-8018.1795 J3326.5039
G03 X127.8133 Y127.3169 I-221.4097 J93.8353
G03 X128.1026 Y129.5133 I-4157.1409 J548.6231
G01 X128.6198 Y133.4397
G01 X129.1682 Y137.6022
G01 X129.4480 Y139.7245
G03 X127.8741 Y141.5195 I-1.5739 J0.2075
G01 X119.8741
G03 X118.3002 Y140.1395 I0.0000 J-1.5875
G01 X118.1001 Y138.6219
G01 X118.0250 Y138.0519
G03 X117.0916 Y130.9612 I6859.6711 J-906.6153
G01 X116.9637 Y129.9993
G02 X113.6523 Y122.0015 I-9171.7594 J3792.8366
G01 X113.3827 Y121.3516
G01 X112.1556 Y118.3905
G01 X111.8859 Y117.7401
G01 X111.4793 Y116.7586
G02 X108.0553 Y112.2947 I-4196.2290 J3215.1390
G02 X102.7547 Y105.3888 I-5486.6056 J4205.8023
G03 X96.5558 Y100.6300 I910.0402 J-1191.8250
G01 X95.8491 Y100.0885
G02 X91.6060 Y96.8333 I-4253.3760 J5539.8581
G01 X91.3838 Y96.6620
G03 X83.3419 Y93.3310 I3409.9272 J-8243.7089
G02 X78.1460 Y91.1787 I-2485.0413 J5991.9231
G02 X69.5145 Y90.0438 I-751.8867 J5685.0440
G01 X67.3691 Y89.7615
G01 X64.4303 Y89.3741
G01 X63.9361 Y89.3092
G01 X55.3041 Y90.4442
G03 X49.7259 Y91.1789 I-389.4845 J-2935.8388
G01 X49.6106 Y91.2267
G01 X39.6850 Y95.3380
G01 X38.6557 Y95.7647
G01 X36.4864 Y96.6628
G01 X35.2889 Y97.5816
G01 X31.5068 Y100.4848
G01 X29.5798 Y101.9628
G01 X27.8639 Y103.2797
G01 X25.1163 Y105.3882
G01 X24.5848 Y106.0808
G01 X23.7024 Y107.2312
G01 X23.0094 Y108.1341
G01 X21.6929 Y109.8500
G02 X16.3921 Y116.7590 I2478.6229 J1907.1602
G03 X14.2385 Y121.9553 I-5862.7757 J-2426.7454
G03 X12.2179 Y126.8347 I-3171.8116 J-1310.6534
G01 X10.9088 Y129.9979
G01 X10.8404 Y130.5184
G03 X10.1792 Y135.5258 I-7496.5493 J-987.3898
G03 X9.5518 Y140.2575 I-128.3842 J-14.6156
G03 X7.9980 Y141.5195 I-1.5538 J-0.3255
G01 X0.0000
G03 X-1.5739 Y139.7248 I0.0000 J-1.5875
G03 X-0.5011 Y131.5752 I5295.6219 J692.9787
G01 X-0.4188 Y130.9502
G01 X0.0448 Y127.4291
G01 X0.1712 Y126.8972
G03 X2.7581 Y120.6529 I3576.1096 J1477.8469
G01 X4.2203 Y117.1217
G03 X6.2386 Y112.2515 I3127.4386 J1293.2033
G01 X6.8247 Y110.9836
G02 X10.3303 Y106.4121 I-7220.6341 J-5540.6240
G01 X12.9042 Y103.0594
G03 X16.7571 Y98.0381 I3802.9298 J2914.0989
G01 X17.3693 Y97.3347
G03 X26.7597 Y90.1303 I4719.9924 J6142.4745
G03 X31.0880 Y86.8774 I85.0020 J108.5981
G01 X37.9487 Y84.0370
G03 X45.2981 Y80.9928 I1912.8921 J4607.8070
G01 X46.3017 Y80.5771
G03 X49.9467 Y76.5171 I2351.1410 J2107.1468
G01 X51.3166 Y74.9918
G02 X55.5303 Y70.3011 I-4120.1830 J-3705.3134
G01 X56.4909 Y69.2325
G01 X56.7564 Y68.9377
G01 Z-3.0000 F2400
G03 X57.9361 Y68.4125 I1.1796 J1.0624 F6000
G01 X61.6432
G03 X63.2307 Y70.0000 I0.0000 J1.5875
G03 X63.2306 Y70.5033 I-914.7585 J-0.0029
G01 Y75.5190
G01 X63.2305 Y77.3881
G03 X61.6430 Y78.9755 I-1.5875 J-0.0001
G01 X60.8837
G01 Y83.2285
G01 X66.9888
G01 Y78.9755
G03 X65.8187 Y78.9215 I-0.4383 J-3.2013
G03 X64.6420 Y77.3887 I0.4108 J-1.5334
G01 X64.6406 Y73.7878
G01 Y70.0000
G03 X66.2281 Y68.4125 I1.5875 J0.0000
G01 X69.9361
G03 X71.2220 Y69.0548 I-0.0104 J1.6293
G01 X71.6946 Y69.5807
G01 X73.0183 Y71.0543
G01 X73.9375 Y72.0777
G03 X78.0338 Y76.6401 I-4373.6973 J3930.9981
G03 X81.5707 Y80.5774 I-2796.7040 J2515.8188
G03 X89.2859 Y83.7718 I-3054.9329 J7389.5060
G03 X94.6117 Y85.9785 I-2547.8332 J6156.6248
G01 X95.4559 Y86.3274
G01 X97.1606 Y87.0948
G03 X103.2375 Y91.7588 I-3777.9673 J4928.7799
G03 X109.3627 Y96.4597 I-4311.4109 J5623.9893
G01 X110.8099 Y97.6418
G03 X115.8051 Y104.1509 I-5793.7851 J4451.4355
G02 X119.6419 Y109.1504 I7512.4220 J-5761.4414
G01 X120.7366 Y110.5763
G01 X121.2635 Y111.3570
G03 X124.9864 Y120.3449 I-8018.1795 J3326.5039
G03 X127.8133 Y127.3169 I-221.4097 J93.8353
G03 X128.1026 Y129.5133 I-4157.1409 J548.6231
G01 X128.6198 Y133.4397
G01 X129.1682 Y137.6022
G01 X129.4480 Y139.7245
G03 X127.8741 Y141.5195 I-1.5739 J0.2075
G01 X119.8741
G03 X118.3002 Y140.1395 I0.0000 J-1.5875
G01 X118.1001 Y138.6219
G01 X118.0250 Y138.0519
G03 X117.0916 Y130.9612 I6859.6711 J-906.6153
G01 X116.9637 Y129.9993
G02 X113.6523 Y122.0015 I-9171.7594 J3792.8366
G01 X113.3827 Y121.3516
G01 X112.1556 Y118.3905
G01 X111.8859 Y117.7401
G01 X111.4793 Y116.7586
G02 X108.0553 Y112.2947 I-4196.2290 J3215.1390
G02 X102.7547 Y105.3888 I-5486.6056 J4205.8023
G03 X96.5558 Y100.6300 I910.0402 J-1191.8250
G01 X95.8491 Y100.0885
G02 X91.6060 Y96.8333 I-4253.3760 J5539.8581
G01 X91.3838 Y96.6620
G03 X83.3419 Y93.3310 I3409.9272 J-8243.7089
G02 X78.1460 Y91.1787 I-2485.0413 J5991.9231
G02 X69.5145 Y90.0438 I-751.8867 J5685.0440
G01 X67.3691 Y89.7615
G01 X64.4303 Y89.3741
G01 X63.9361 Y89.3092
G01 X55.3041 Y90.4442
G03 X49.7259 Y91.1789 I-389.4845 J-2935.8388
G01 X49.6106 Y91.2267
G01 X39.6850 Y95.3380
G01 X38.6557 Y95.7647
G01 X36.4864 Y96.6628
G01 X35.2889 Y97.5816
G01 X31.5068 Y100.4848
G01 X29.5798 Y101.9628
G01 X27.8639 Y103.2797
G01 X25.1163 Y105.3882
G01 X24.5848 Y106.0808
G01 X23.7024 Y107.2312
G01 X23.0094 Y108.1341
G01 X21.6929 Y109.8500
G02 X16.3921 Y116.7590 I2478.6229 J1907.1602
G03 X14.2385 Y121.9553 I-5862.7757 J-2426.7454
G03 X12.2179 Y126.8347 I-3171.8116 J-1310.6534
G01 X10.9088 Y129.9979
G01 X10.8404 Y130.5184
G03 X10.1792 Y135.5258 I-7496.5493 J-987.3898
G03 X9.5518 Y140.2575 I-128.3842 J-14.6156
G03 X7.9980 Y141.5195 I-1.5538 J-0.3255
G01 X0.0000
G03 X-1.5739 Y139.7248 I0.0000 J-1.5875
G03 X-0.5011 Y131.5752 I5295.6219 J692.9787
G01 X-0.4188 Y130.9502
G01 X0.0448 Y127.4291
G01 X0.1712 Y126.8972
G03 X2.7581 Y120.6529 I3576.1096 J1477.8469
G01 X4.2203 Y117.1217
G03 X6.2386 Y112.2515 I3127.4386 J1293.2033
G01 X6.8247 Y110.9836
G02 X10.3303 Y106.4121 I-7220.6341 J-5540.6240
G01 X12.9042 Y103.0594
G03 X16.7571 Y98.0381 I3802.9298 J2914.0989
G01 X17.3693 Y97.3347
G03 X26.7597 Y90.1303 I4719.9924 J6142.4745
G03 X31.0880 Y86.8774 I85.0020 J108.5981
G01 X37.9487 Y84.0370
G03 X45.2981 Y80.9928 I1912.8921 J4607.8070
G01 X46.3017 Y80.5771
G03 X49.9467 Y76.5171 I2351.1410 J2107.1468
G01 X51.3166 Y74.9918
G02 X55.5303 Y70.3011 I-4120.1830 J-3705.3134
G01 X56.4909 Y69.2325
G01 X56.7564 Y68.9377
G01 Z-3.4000 F2400
G03 X57.9361 Y68.4125 I1.1796 J1.0624 F6000
G01 X61.6432
G03 X63.2307 Y70.0000 I0.0000 J1.5875
G03 X63.2306 Y70.5033 I-914.7585 J-0.0029
G01 Y75.5190
G01 X63.2305 Y77.3881
G03 X61.6430 Y78.9755 I-1.5875 J-0.0001
G01 X60.8837
G01 Y83.2285
G01 X66.9888
G01 Y78.9755
G03 X65.8187 Y78.9215 I-0.4383 J-3.2013
G03 X64.6420 Y77.3887 I0.4108 J-1.5334
G01 X64.6406 Y73.7878
G01 Y70.0000
G03 X66.2281 Y68.4125 I1.5875 J0.0000
G01 X69.9361
G03 X71.2220 Y69.0548 I-0.0104 J1.6293
G01 X71.6946 Y69.5807
G01 X73.0183 Y71.0543
G01 X73.9375 Y72.0777
G03 X78.0338 Y76.6401 I-4373.6973 J3930.9981
G03 X81.5707 Y80.5774 I-2796.7040 J2515.8188
G03 X89.2859 Y83.7718 I-3054.9329 J7389.5060
G03 X94.6117 Y85.9785 I-2547.8332 J6156.6248
G01 X95.4559 Y86.3274
G01 X97.1606 Y87.0948
G03 X103.2375 Y91.7588 I-3777.9673 J4928.7799
G03 X109.3627 Y96.4597 I-4311.4109 J5623.9893
G01 X110.8099 Y97.6418
G03 X115.8051 Y104.1509 I-5793.7851 J4451.4355
G02 X119.6419 Y109.1504 I7512.4220 J-5761.4414
G01 X120.7366 Y110.5763
G01 X121.2635 Y111.3570
G03 X124.9864 Y120.3449 I-8018.1795 J3326.5039
G03 X127.8133 Y127.3169 I-221.4097 J93.8353
G03 X128.1026 Y129.5133 I-4157.1409 J548.6231
G01 X128.6198 Y133.4397
G01 X129.1682 Y137.6022
G01 X129.4480 Y139.7245
G03 X127.8741 Y141.5195 I-1.5739 J0.2075
G01 X119.8741
G03 X118.3002 Y140.1395 I0.0000 J-1.5875
G01 X118.1001 Y138.6219
G01 X118.0250 Y138.0519
G03 X117.0916 Y130.9612 I6859.6711 J-906.6153
G01 X116.9637 Y129.9993
G02 X113.6523 Y122.0015 I-9171.7594 J3792.8366
G01 X113.3827 Y121.3516
G01 X112.1556 Y118.3905
G01 X111.8859 Y117.7401
G01 X111.4793 Y116.7586
G02 X108.0553 Y112.2947 I-4196.2290 J3215.1390
G02 X102.7547 Y105.3888 I-5486.6056 J4205.8023
G03 X96.5558 Y100.6300 I910.0402 J-1191.8250
G01 X95.8491 Y100.0885
G02 X91.6060 Y96.8333 I-4253.3760 J5539.8581
G01 X91.3838 Y96.6620
G03 X83.3419 Y93.3310 I3409.9272 J-8243.7089
G02 X78.1460 Y91.1787 I-2485.0413 J5991.9231
G02 X69.5145 Y90.0438 I-751.8867 J5685.0440
G01 X67.3691 Y89.7615
G01 X64.4303 Y89.3741
G01 X63.9361 Y89.3092
G01 X55.3041 Y90.4442
G03 X49.7259 Y91.1789 I-389.4845 J-2935.8388
G01 X49.6106 Y91.2267
G01 X39.6850 Y95.3380
G01 X38.6557 Y95.7647
G01 X36.4864 Y96.6628
G01 X35.2889 Y97.5816
G01 X31.5068 Y100.4848
G01 X29.5798 Y101.9628
G01 X27.8639 Y103.2797
G01 X25.1163 Y105.3882
G01 X24.5848 Y106.0808
G01 X23.7024 Y107.2312
G01 X23.0094 Y108.1341
G01 X21.6929 Y109.8500
G02 X16.3921 Y116.7590 I2478.6229 J1907.1602
G03 X14.2385 Y121.9553 I-5862.7757 J-2426.7454
G03 X12.2179 Y126.8347 I-3171.8116 J-1310.6534
G01 X10.9088 Y129.9979
G01 X10.8404 Y130.5184
G03 X10.1792 Y135.5258 I-7496.5493 J-987.3898
G03 X9.5518 Y140.2575 I-128.3842 J-14.6156
G03 X7.9980 Y141.5195 I-1.5538 J-0.3255
G01 X0.0000
G03 X-1.5739 Y139.7248 I0.0000 J-1.5875
G03 X-0.5011 Y131.5752 I5295.6219 J692.9787
G01 X-0.4188 Y130.9502
G01 X0.0448 Y127.4291
G01 X0.1712 Y126.8972
G03 X2.7581 Y120.6529 I3576.1096 J1477.8469
G01 X4.2203 Y117.1217
G03 X6.2386 Y112.2515 I3127.4386 J1293.2033
G01 X6.8247 Y110.9836
G02 X10.3303 Y106.4121 I-7220.6341 J-5540.6240
G01 X12.9042 Y103.0594
G03 X16.7571 Y98.0381 I3802.9298 J2914.0989
G01 X17.3693 Y97.3347
G03 X26.7597 Y90.1303 I4719.9924 J6142.4745
G03 X31.0880 Y86.8774 I85.0020 J108.5981
G01 X37.9487 Y84.0370
G03 X45.2981 Y80.9928 I1912.8921 J4607.8070
G01 X46.3017 Y80.5771
G03 X49.9467 Y76.5171 I2351.1410 J2107.1468
G01 X51.3166 Y74.9918
G02 X55.5303 Y70.3011 I-4120.1830 J-3705.3134
G01 X56.4909 Y69.2325
G01 X56.7564 Y68.9377
G00 Z5.0000
G00 X0.0000 Y0.0000

M05
M30
